!!!COM: des Prez, Josquin
!!!CDT: ~1450-1521/08/27
!!!OTL: O admirabile commercium [5 sections]
!!!AGN: Motet
!!!SCT: NJE 21.7
!!!SCA: New Josquin Edition 21.7
!!!voices: 4
**kern	**text	**kern	**text	**kern	**text	**kern	**text
*staff4	*staff4	*staff3	*staff3	*staff2	*staff2	*staff1	*staff1
*Ivox	*	*Ivox	*	*Ivox	*	*Ivox	*
*I"Bassus	*	*I"Tenor	*	*I"Altus	*	*I"Superius	*
*I'B	*	*I'T	*	*I'A	*	*I'S	*
*>[A,B,C,D,E]	*>[A,B,C,D,E]	*>[A,B,C,D,E]	*>[A,B,C,D,E]	*>[A,B,C,D,E]	*>[A,B,C,D,E]	*>[A,B,C,D,E]	*>[A,B,C,D,E]
*>A	*>A	*>A	*>A	*>A	*>A	*>A	*>A
*clefF4	*	*clefGv2	*	*clefGv2	*	*clefG2	*
*k[b-e-]	*	*k[b-]	*	*k[b-]	*	*k[b-]	*
*M2/1	*	*M2/1	*	*M2/1	*	*M2/1	*
*met(C|)	*	*met(C|)	*	*met(C|)	*	*met(C|)	*
!!section: Prima pars: O admirabile commercium
=1-	=1-	=1-	=1-	=1-	=1-	=1-	=1-
0r	.	0r	.	0r	.	[0a	O,
=2	=2	=2	=2	=2	=2	=2	=2
0r	.	0r	.	[0d	O,	0a]	.
=3	=3	=3	=3	=3	=3	=3	=3
0r	.	0r	.	0d]	.	[0b-	.
=4	=4	=4	=4	=4	=4	=4	=4
0r	.	0r	.	[0e-	.	1b-]	.
.	.	.	.	.	.	1g	.
=5	=5	=5	=5	=5	=5	=5	=5
0r	.	0r	.	1e-]	.	0g	.
.	.	.	.	1c	.	.	.
=6	=6	=6	=6	=6	=6	=6	=6
0r	.	0r	.	[0c	.	1r	.
.	.	.	.	.	.	1g	o
=7	=7	=7	=7	=7	=7	=7	=7
0r	.	0r	.	0c]	.	2.a	.
.	.	.	.	.	.	4g	.
.	.	.	.	.	.	4a	.
.	.	.	.	.	.	4b-	.
.	.	.	.	.	.	[2cc	.
=8	=8	=8	=8	=8	=8	=8	=8
0r	.	0r	.	1r	.	2cc]	.
.	.	.	.	.	.	4b-	.
.	.	.	.	.	.	4a	.
.	.	.	.	1c	o	1g	.
=9	=9	=9	=9	=9	=9	=9	=9
0r	.	0r	.	2.d	.	0f	.
.	.	.	.	4c	.	.	.
.	.	.	.	4d	.	.	.
.	.	.	.	4e-i	.	.	.
.	.	.	.	[2f	.	.	.
=10	=10	=10	=10	=10	=10	=10	=10
0r	.	0r	.	2f]	.	1r	.
.	.	.	.	4e-i	.	.	.
.	.	.	.	4d	.	.	.
.	.	.	.	2e-i	.	[1b-	ad-
.	.	.	.	2d	.	.	.
=11	=11	=11	=11	=11	=11	=11	=11
0r	.	0r	.	1B-	.	1b-]	.
.	.	.	.	[1e-i	ad-	1b-	-mi-
=12	=12	=12	=12	=12	=12	=12	=12
0r	.	0r	.	1e-]	.	1b-	-ra-
.	.	.	.	1e-i	-mi-	[1cc	.
=13	=13	=13	=13	=13	=13	=13	=13
0r	.	0r	.	1e-i	-ra-	2cc]	.
.	.	.	.	.	.	2cc	-bi-
.	.	.	.	[1f	.	1cc	-le
=14	=14	=14	=14	=14	=14	=14	=14
0r	.	0r	.	2f]	.	2r	.
.	.	.	.	2f	-bi-	2.f	com-
.	.	.	.	1f	-le	.	.
.	.	.	.	.	.	4g	.
.	.	.	.	.	.	4a	.
.	.	.	.	.	.	4b-	.
=15	=15	=15	=15	=15	=15	=15	=15
0r	.	0r	.	2r	.	2cc	.
.	.	.	.	2.F	com-	1a	.
.	.	.	.	4G	.	.	.
.	.	.	.	4A	.	4g	.
.	.	.	.	4B-	.	4f	.
=16	=16	=16	=16	=16	=16	=16	=16
0r	.	[0A	O,	2c	.	2e	.
.	.	.	.	1d	.	1f	.
.	.	.	.	2c	.	2e	.
=17	=17	=17	=17	=17	=17	=17	=17
[0D	O,	0A]	.	[0d	-mer-	[0f	-mer-
=18	=18	=18	=18	=18	=18	=18	=18
0D]	.	[0B-	.	0d]	.	0f]	.
=19	=19	=19	=19	=19	=19	=19	=19
[0E-	.	1B-]	.	[0B-	.	[0g	.
.	.	1G	.	.	.	.	.
=20	=20	=20	=20	=20	=20	=20	=20
1E-]	.	0G	.	1B-]	.	1g]	.
1C	.	.	.	1c	-ci-	1e	-ci-
=21	=21	=21	=21	=21	=21	=21	=21
[0C	.	1r	.	[0c	-um:	[0e	-um:
.	.	1G	o	.	.	.	.
=22	=22	=22	=22	=22	=22	=22	=22
0C]	.	2.A	.	0c_	.	0e_	.
.	.	4G	.	.	.	.	.
.	.	4A	.	.	.	.	.
.	.	4B-	.	.	.	.	.
.	.	[2c	.	.	.	.	.
=23	=23	=23	=23	=23	=23	=23	=23
1r	.	2c]	.	0c]	.	0e]	.
.	.	4B-	.	.	.	.	.
.	.	4A	.	.	.	.	.
1C	o	1G	.	.	.	.	.
=24	=24	=24	=24	=24	=24	=24	=24
2.D	.	0F	.	0r	.	0r	.
4C	.	.	.	.	.	.	.
4D	.	.	.	.	.	.	.
4E-	.	.	.	.	.	.	.
[2F	.	.	.	.	.	.	.
=25	=25	=25	=25	=25	=25	=25	=25
2F]	.	1r	.	0r	.	0r	.
4E-	.	.	.	.	.	.	.
4D	.	.	.	.	.	.	.
2E-	.	[1B-	ad-	.	.	.	.
2D	.	.	.	.	.	.	.
=26	=26	=26	=26	=26	=26	=26	=26
1BB-	.	1B-]	.	0r	.	0r	.
[1E-	ad-	1B-	-mi-	.	.	.	.
=27	=27	=27	=27	=27	=27	=27	=27
2E-]	.	1B-	-ra-	0r	.	0r	.
2E-	-mi-	.	.	.	.	.	.
1E-	-ra-	[1c	.	.	.	.	.
=28	=28	=28	=28	=28	=28	=28	=28
1.F	.	2c]	.	0r	.	0r	.
.	.	2c	-bi-	.	.	.	.
.	.	[1c	-le	.	.	.	.
2F	-bi-	.	.	.	.	.	.
=29	=29	=29	=29	=29	=29	=29	=29
2F	-le	2c]	.	0r	.	0r	.
2G	com-	2B-	com-	.	.	.	.
2A	-mer-	2c	-mer-	.	.	.	.
2B-	.	[2d	.	.	.	.	.
=30	=30	=30	=30	=30	=30	=30	=30
2F	.	4d]	.	0r	.	0r	.
.	.	4c	.	.	.	.	.
2.B-	.	4d	.	.	.	.	.
.	.	4B-	.	.	.	.	.
.	.	1c	-ci-	.	.	.	.
4A	.	.	.	.	.	.	.
4A	-ci-	.	.	.	.	.	.
4G	.	.	.	.	.	.	.
=31	=31	=31	=31	=31	=31	=31	=31
[0B-	-um:	0B-	-um:	0r	.	1r	.
.	.	.	.	.	.	1f	Cre-
=32	=32	=32	=32	=32	=32	=32	=32
0B-]	.	0r	.	1r	.	1g	-a-
.	.	.	.	1f	Cre-	1f	-tor
=33	=33	=33	=33	=33	=33	=33	=33
0r	.	0r	.	1g	-a-	1b-	ge-
.	.	.	.	[1f	-tor	2cc	.
.	.	.	.	.	.	[2dd	.
=34	=34	=34	=34	=34	=34	=34	=34
0r	.	0r	.	2f]	.	4dd]	.
.	.	.	.	.	.	4cc	.
.	.	.	.	2d	ge-	4dd	.
.	.	.	.	.	.	4b-	.
.	.	.	.	2e-i	.	2cc	.
.	.	.	.	2f	.	[2dd	.
=35	=35	=35	=35	=35	=35	=35	=35
0r	.	0r	.	1B-	.	4dd]	.
.	.	.	.	.	.	4cc	.
.	.	.	.	.	.	2.b-	.
.	.	.	.	2.c	.	.	.
.	.	.	.	.	.	4a	.
.	.	.	.	.	.	4a	-ne-
.	.	.	.	4B-	.	4g	.
=36	=36	=36	=36	=36	=36	=36	=36
0r	.	0B-	Cre-	2.G	.	1b-	-ris,-
.	.	.	.	4F	.	.	.
.	.	.	.	1G	-ne-	2r	.
.	.	.	.	.	.	[2b-	-ge-
=37	=37	=37	=37	=37	=37	=37	=37
0F	Cre-	0c	-a-	1F	-ris,-	2b-]	.
.	.	.	.	.	.	4a	.
.	.	.	.	.	.	4g	.
.	.	.	.	2r	.	1a	.
.	.	.	.	[2f	-ge-	.	.
=38	=38	=38	=38	=38	=38	=38	=38
1G	-a-	1B-	-tor	2f]	.	2.b-	.
.	.	.	.	4e	.	.	.
.	.	.	.	4d	.	4a	.
1C	-tor	[1c	ge-	1e	.	2g	.
.	.	.	.	.	.	[2cc	-ne-
=39	=39	=39	=39	=39	=39	=39	=39
1.F	ge-	2c]	.	1A	.	4cc]	.
.	.	.	.	.	.	4b-	.
.	.	2c	-ne-	.	.	4a	.
.	.	.	.	.	.	4g	.
.	.	2.c	-ris	[1f	-ne-	[1a	-ris
2F	-ne-	.	.	.	.	.	.
.	.	4B-	.	.	.	.	.
=40	=40	=40	=40	=40	=40	=40	=40
1F	-ris	2c	.	1f]	.	1a]	.
.	.	1d	hu-	.	.	.	.
1G	hu-	.	.	1B-	-ris	1dd	hu-
.	.	2B-	.	.	.	.	.
=41	=41	=41	=41	=41	=41	=41	=41
2A	-ma-	2c	-ma-	2r	.	2cc	-ma-
2F	.	1d	.	2f	hu-	2a	.
1G	.	.	.	2.d	-ma-	1b-	.
.	.	2B-	.	.	.	.	.
.	.	.	.	4e	.	.	.
=42	=42	=42	=42	=42	=42	=42	=42
[0F	-ni,	2d	.	[0f	-ni,	2a	.
.	.	1c	.	.	.	2.cc	.
.	.	.	.	.	.	4b-	.
.	.	[2d	.	.	.	4a	.
.	.	.	.	.	.	4g	.
=43	=43	=43	=43	=43	=43	=43	=43
0F]	.	2d]	.	0f_	.	2a	.
.	.	4c	.	.	.	1b-	.
.	.	4B-	.	.	.	.	.
.	.	1c	.	.	.	.	.
.	.	.	.	.	.	2a	.
=44	=44	=44	=44	=44	=44	=44	=44
1r	.	[0B-	-ni,	0f]	.	1.b-	-ni,
[1BB-	a-	.	.	.	.	.	.
.	.	.	.	.	.	4a	.
.	.	.	.	.	.	4g	.
=45	=45	=45	=45	=45	=45	=45	=45
2BB-]	.	0B-]	.	0r	.	2f	.
2BB-	-ni-	.	.	.	.	2g	.
2.BB-	-ma-	.	.	.	.	2.d	a-
4C	.	.	.	.	.	4e-i	.
=46	=46	=46	=46	=46	=46	=46	=46
2.D	.	0r	.	0r	.	4f	-ni-
.	.	.	.	.	.	4g	.
.	.	.	.	.	.	1f	-ma-
4E-	.	.	.	.	.	.	.
[1F	.	.	.	.	.	.	.
.	.	.	.	.	.	4e-i	.
.	.	.	.	.	.	4d	.
=47	=47	=47	=47	=47	=47	=47	=47
2F]	.	0r	.	0r	.	2c	.
2D	.	.	.	.	.	1d	.
1E-	.	.	.	.	.	.	.
.	.	.	.	.	.	2c	.
=48	=48	=48	=48	=48	=48	=48	=48
[0D	-tum	0r	.	1.F	a-	2.d	-tum,-
.	.	.	.	.	.	4e	.
.	.	.	.	.	.	4f	.
.	.	.	.	.	.	4g	.
.	.	.	.	2F	-ni-	2a	.
=49	=49	=49	=49	=49	=49	=49	=49
0D_	.	0r	.	2.F	-ma-	2d	-a-
.	.	.	.	.	.	2.a	.
.	.	.	.	4G	.	.	.
.	.	.	.	2A	.	.	.
.	.	.	.	.	.	4g	.
.	.	.	.	[2B-	.	4f	-ni-
.	.	.	.	.	.	4e	.
=50	=50	=50	=50	=50	=50	=50	=50
0D]	.	0r	.	2B-]	.	2f	-ma-
.	.	.	.	4A	.	1g	.
.	.	.	.	4G	.	.	.
.	.	.	.	1A	.	.	.
.	.	.	.	.	.	2f#i	.
=51	=51	=51	=51	=51	=51	=51	=51
0r	.	1.B-	a-	[0G	-tum	2.g	.
.	.	.	.	.	.	4a	.
.	.	.	.	.	.	4b-	.
.	.	.	.	.	.	4cc	.
.	.	2B-	-ni-	.	.	2dd	.
=52	=52	=52	=52	=52	=52	=52	=52
0r	.	2.B-	-ma-	0G_	.	2g	-tum,-
.	.	.	.	.	.	2.dd	-a-
.	.	4c	.	.	.	.	.
.	.	2d	.	.	.	.	.
.	.	.	.	.	.	4cc	.
.	.	[2e-i	.	.	.	4b-	-ni-
.	.	.	.	.	.	4a	.
=53	=53	=53	=53	=53	=53	=53	=53
0r	.	2e-]	.	0G]	.	2b-	-ma-
.	.	4d	.	.	.	1cc	.
.	.	4c	.	.	.	.	.
.	.	1d	.	.	.	.	.
.	.	.	.	.	.	2bni	.
=54	=54	=54	=54	=54	=54	=54	=54
0r	.	0c	-tum	1r	.	1.cc	-tum
.	.	.	.	[1e-	cor-	.	.
.	.	.	.	.	.	2b-	.
=55	=55	=55	=55	=55	=55	=55	=55
0r	.	0r	.	1e-]	.	1g	.
.	.	.	.	1d	-pus	1b-	cor-
=56	=56	=56	=56	=56	=56	=56	=56
1r	.	0r	.	2.c	su-	1a	-pus
.	.	.	.	4B-	.	.	.
[1E-	cor-	.	.	1c	.	[1g	su-
=57	=57	=57	=57	=57	=57	=57	=57
1E-]	.	0r	.	0B-	-mens,	1g]	.
1D	-pus	.	.	.	.	1f	-mens,
=58	=58	=58	=58	=58	=58	=58	=58
2.C	su-	0e-	cor-	1r	.	2r	.
.	.	.	.	.	.	2.g	de
4BB-	.	.	.	.	.	.	.
1C	.	.	.	1E-	de	.	.
.	.	.	.	.	.	4f	.
.	.	.	.	.	.	4g	.
.	.	.	.	.	.	4a	.
=59	=59	=59	=59	=59	=59	=59	=59
1BB-	-mens,	1d	-pus	2.F	vir-	1b-	.
.	.	.	.	4G	.	.	.
[1F	de	[1c	su-	2A	.	1cc	vir-
.	.	.	.	2F	.	.	.
=60	=60	=60	=60	=60	=60	=60	=60
1F]	.	1c]	.	2.f	.	1a	-gi-
.	.	.	.	4e	.	.	.
[1G	vir-	1B-	-mens,	4d	.	2.b-	-ne
.	.	.	.	4c	.	.	.
.	.	.	.	[2d	-gi-	.	.
.	.	.	.	.	.	4cc	.
=61	=61	=61	=61	=61	=61	=61	=61
1G]	.	2r	.	2d]	.	2dd	.
.	.	2B-	de	2.e-i	-ne	1g	nas-
1E-	-gi-	1c	vir-	.	.	.	.
.	.	.	.	4c	.	.	.
.	.	.	.	[2c	.	[2cc	.
=62	=62	=62	=62	=62	=62	=62	=62
1F	-ne	1A	-gi-	2c]	.	4cc]	.
.	.	.	.	.	.	4a	.
.	.	.	.	2f	nas-	2.dd	.
[1G	nas-	2.B-	-ne	2d	.	.	.
.	.	.	.	.	.	4cc	.
.	.	.	.	[2g	.	[2b-	.
.	.	4c	.	.	.	.	.
=63	=63	=63	=63	=63	=63	=63	=63
1G]	.	2d	.	4g]	.	2b-]	.
.	.	.	.	4f	.	.	.
.	.	2B-	.	4d	.	4a	.
.	.	.	.	4e	.	4g	.
1F	-ci	1c	nas-	2.f	.	1a	.
.	.	.	.	4e	.	.	.
=64	=64	=64	=64	=64	=64	=64	=64
2r	.	0B-	-ci	4d	.	1b-	-ci
.	.	.	.	4c	.	.	.
2BB-	di-	.	.	1d	-ci	.	.
2.BB-	-gna-	.	.	.	.	2r	.
.	.	.	.	2B-	di-	2f	di-
4C	.	.	.	.	.	.	.
=65	=65	=65	=65	=65	=65	=65	=65
2.D	.	0r	.	2A	-gna-	2.f	-gna-
.	.	.	.	1f	.	.	.
4E-	.	.	.	.	.	4g	.
2F	.	.	.	.	.	2a	.
2BB-	-tus	.	.	2d	.	[2b-	.
=66	=66	=66	=66	=66	=66	=66	=66
1F	est,-	0r	.	1c	.	2b-]	.
.	.	.	.	.	.	2a	.
2.BB-	-di-	.	.	1B-	-tus	2.b-	.
4C	.	.	.	.	.	4a	.
=67	=67	=67	=67	=67	=67	=67	=67
2D	.	1r	.	2r	.	2f	.
1E-	-gna-	.	.	2.B-	est,-	1g	.
.	.	1B-	di-	.	.	.	.
.	.	.	.	4c	.	.	.
2D	.	.	.	2d	.	2f	-tus
=68	=68	=68	=68	=68	=68	=68	=68
2.E-	.	2.B-	-gna-	1G	.	0g	est;
4D	.	4c	.	.	.	.	.
2BB-	.	2d	.	2r	.	.	.
[2C	.	[2e-i	.	[2G	-di-	.	.
=69	=69	=69	=69	=69	=69	=69	=69
2C]	.	2e-]	.	4G]	.	0r	.
.	.	.	.	4A	.	.	.
2BB-	.	2d	.	2B-	.	.	.
2C	.	2.e-i	.	2.E-	-gna-	.	.
[2E-	.	.	.	.	.	.	.
.	.	4d	.	4F	.	.	.
=70	=70	=70	=70	=70	=70	=70	=70
2E-]	.	2B-	.	2G	.	0r	.
4D	.	1c	.	2A	.	.	.
4C	.	.	.	.	.	.	.
1D	-tus	.	.	2.F	.	.	.
.	.	2Bni	-tus	.	.	.	.
.	.	.	.	4G	.	.	.
=71	=71	=71	=71	=71	=71	=71	=71
1.C	est;	[0c	est;	2A	.	1r	.
.	.	.	.	2A	-tus	.	.
.	.	.	.	[1G	est;	1g	et
2D	et	.	.	.	.	.	.
=72	=72	=72	=72	=72	=72	=72	=72
1E-	pro-	0c]	.	1G]	.	1g	pro-
1F	-ce-	.	.	1F	.	[1a	-ce-
=73	=73	=73	=73	=73	=73	=73	=73
0C	-dens,	1r	.	2r	.	1a]	.
.	.	.	.	2.c	et	.	.
.	.	1c	et	.	.	1g	-dens
.	.	.	.	4B-	.	.	.
.	.	.	.	4A	pro-	.	.
.	.	.	.	4G	.	.	.
=74	=74	=74	=74	=74	=74	=74	=74
1r	.	1c	pro-	1A	-ce-	2r	.
.	.	.	.	.	.	1cc	ho-
1G	et	[1d	-ce-	1G	-dens,	.	.
.	.	.	.	.	.	4bni	.
.	.	.	.	.	.	4a	.
=75	=75	=75	=75	=75	=75	=75	=75
1G	pro-	1d]	.	0r	.	1bni	.
[1A	-ce-	1c	-dens	.	.	[1cc	-mo,-
=76	=76	=76	=76	=76	=76	=76	=76
1A]	.	1A	ho-	1c	et	1cc]	.
1G	-dens	1B-	.	1d	pro-	2r	.
.	.	.	.	.	.	[2b-	-ho-
=77	=77	=77	=77	=77	=77	=77	=77
1E-	ho-	0c	.	1e-i	-ce-	2b-]	.
.	.	.	.	.	.	4a	.
.	.	.	.	.	.	4g	.
1F	.	.	.	2c	-dens	1a	.
.	.	.	.	[2f	ho-	.	.
=78	=78	=78	=78	=78	=78	=78	=78
0G	.	1B-	-mo	2f]	.	0b-	-mo
.	.	.	.	4e	.	.	.
.	.	.	.	4d	.	.	.
.	.	2r	.	1e	.	.	.
.	.	[2B-	si-	.	.	.	.
=79	=79	=79	=79	=79	=79	=79	=79
0F	-mo	2B-]	.	0f	-mo	0r	.
.	.	4A	.	.	.	.	.
.	.	4G	.	.	.	.	.
.	.	1A	-ne	.	.	.	.
=80	=80	=80	=80	=80	=80	=80	=80
0r	.	2.G	se-	0r	.	2r	.
.	.	.	.	.	.	1b-	si-
.	.	4A	.	.	.	.	.
.	.	2B-	.	.	.	.	.
.	.	2c	.	.	.	4a	.
.	.	.	.	.	.	4g	.
=81	=81	=81	=81	=81	=81	=81	=81
0r	.	2F	.	0r	.	1a	-ne
.	.	2.c	.	.	.	.	.
.	.	.	.	.	.	2.g	se-
.	.	4B-	.	.	.	.	.
.	.	2c	.	.	.	.	.
.	.	.	.	.	.	4a	.
=82	=82	=82	=82	=82	=82	=82	=82
0r	.	2d	.	0r	.	2b-	.
.	.	2c	.	.	.	1cc	.
.	.	2.d	.	.	.	.	.
.	.	.	.	.	.	[2b-	.
.	.	4c	.	.	.	.	.
=83	=83	=83	=83	=83	=83	=83	=83
0r	.	4d	.	0r	.	2b-]	.
.	.	4e	.	.	.	.	.
.	.	1f	.	.	.	2a	.
.	.	.	.	.	.	1g	-mi-
.	.	2e	-mi-	.	.	.	.
=84	=84	=84	=84	=84	=84	=84	=84
2r	.	0f	-ne,	0r	.	0f	-ne,
1F	si-	.	.	.	.	.	.
4E-	.	.	.	.	.	.	.
4D	.	.	.	.	.	.	.
=85	=85	=85	=85	=85	=85	=85	=85
1E-	-ne	0r	.	1r	.	0r	.
2.D	se-	.	.	[1f	si-	.	.
4E-	.	.	.	.	.	.	.
=86	=86	=86	=86	=86	=86	=86	=86
2F	.	0r	.	2f]	.	0r	.
2G	.	.	.	4e-i	.	.	.
.	.	.	.	4d	.	.	.
2C	.	.	.	1e-i	.	.	.
[2G	.	.	.	.	.	.	.
=87	=87	=87	=87	=87	=87	=87	=87
2G]	.	0r	.	1d	-ne	0r	.
2F	.	.	.	.	.	.	.
2D	.	.	.	2.f	se-	.	.
[2F	.	.	.	.	.	.	.
.	.	.	.	4e-i	.	.	.
=88	=88	=88	=88	=88	=88	=88	=88
4F]	.	1r	.	4d	.	0r	.
4E-	.	.	.	4c	.	.	.
2C	.	.	.	1c	.	.	.
1D	-mi-	1F	lar-	.	.	.	.
.	.	.	.	2Bni	-mi-	.	.
=89	=89	=89	=89	=89	=89	=89	=89
1C	-ne,	1G	.	1c	-ne,	1r	.
1BB-	lar-	[1B-	-gi-	1d	lar-	1f	lar-
=90	=90	=90	=90	=90	=90	=90	=90
1.E-	-gi-	2B-]	.	1.G	-gi-	1g	.
.	.	2B-	-tus	.	.	.	.
.	.	2.B-	est	.	.	[1b-	-gi-
2D	-tus	.	.	2A	.	.	.
.	.	4c	.	.	.	.	.
=91	=91	=91	=91	=91	=91	=91	=91
0BB-	est,-	4d	.	0B-	-est,-	2b-]	.
.	.	4e-i	.	.	.	.	.
.	.	1d	.	.	.	2b-	-tus
.	.	.	.	.	.	2.b-	est
.	.	2B-	.	.	.	.	.
.	.	.	.	.	.	4g	.
=92	=92	=92	=92	=92	=92	=92	=92
1r	.	1d	no-	0r	.	2b-	.
.	.	.	.	.	.	2.a	no-
1F	-lar-	1c	-bis	.	.	.	.
.	.	.	.	.	.	4g	.
.	.	.	.	.	.	4f	.
.	.	.	.	.	.	4e	.
=93	=93	=93	=93	=93	=93	=93	=93
1G	.	0r	.	2r	.	0d	-bis
.	.	.	.	2.B-	-lar-	.	.
[1B-	-gi-	.	.	.	.	.	.
.	.	.	.	4c	.	.	.
.	.	.	.	4d	.	.	.
.	.	.	.	4e	.	.	.
=94	=94	=94	=94	=94	=94	=94	=94
2B-]	.	0r	.	2f	-gi-	0r	.
2B-	-tus	.	.	2g	-tus	.	.
2.B-	est	.	.	2d	est	.	.
.	.	.	.	[2f	no-	.	.
4A	.	.	.	.	.	.	.
=95	=95	=95	=95	=95	=95	=95	=95
2F	.	0r	.	4f]	.	0r	.
.	.	.	.	4e	.	.	.
2A	.	.	.	2c	.	.	.
2.G	no-	.	.	2e	.	.	.
.	.	.	.	[2d	.	.	.
4F	.	.	.	.	.	.	.
=96	=96	=96	=96	=96	=96	=96	=96
0D	-bis	1d	su-	2d]	.	1r	.
.	.	.	.	4c	.	.	.
.	.	.	.	4B-	.	.	.
.	.	2.d	-am	1A	-bis	1a	su-
.	.	4c	.	.	.	.	.
=97	=97	=97	=97	=97	=97	=97	=97
0r	.	4d	.	2r	.	2.a	-am
.	.	4e	.	.	.	.	.
.	.	1f	.	2D	su-	.	.
.	.	.	.	.	.	4g	.
.	.	.	.	2.F	-am	4a	.
.	.	.	.	.	.	4b-	.
.	.	4e	.	.	.	[2cc	.
.	.	4d	.	4G	.	.	.
=98	=98	=98	=98	=98	=98	=98	=98
0r	.	1c	.	2.A	.	2cc]	.
.	.	.	.	.	.	4b-	.
.	.	.	.	4B-	.	4a	.
.	.	[1e-i	de-	2.c	.	2.g	.
.	.	.	.	4B-	.	4a	.
=99	=99	=99	=99	=99	=99	=99	=99
0r	.	1e-]	.	2G	de-	2b-	de-
.	.	.	.	2A	-i-	2cc	-i-
.	.	1d	-i-	2.B-	-ta-	2.f	-ta-
.	.	.	.	4A	.	4g	.
=100	=100	=100	=100	=100	=100	=100	=100
1r	.	2c	-ta-	2F	.	2a	.
.	.	2B-	.	2G	.	1b-	.
1F	su-	1c	.	1F	.	.	.
.	.	.	.	.	.	2a	.
=101	=101	=101	=101	=101	=101	=101	=101
2G	-am	[0B-l	-tem.-	1B-	-tem,	1b-	-tem,
2.B-	de-	.	.	.	.	.	.
.	.	.	.	2r	.	2r	.
4A	.	.	.	.	.	.	.
[2G	.	.	.	[2B-	de-	[2b-	de-
=102	=102	=102	=102	=102	=102	=102	=102
4G]	.	0B-_	.	4B-]	.	4b-]	.
4F	.	.	.	4c	.	4a	.
2D	-i-	.	.	2d	-i-	2f	-i-
2.E-	-ta-	.	.	1G	-ta-	1g	-ta-
4D	.	.	.	.	.	.	.
=103	=103	=103	=103	=103	=103	=103	=103
0BB-l	-tem.-	0B-]	.	0dl	-tem.-	0fl	-tem.-
!!LO:LB:i:g=z
=104||	=104||	=104||	=104||	=104||	=104||	=104||	=104||
*>B	*>B	*>B	*>B	*>B	*>B	*>B	*>B
*clefF4	*	*clefGv2	*	*clefGv2	*	*clefG2	*
*k[b-]	*	*k[b-]	*	*k[b-]	*	*k[b-]	*
*M2/1	*	*M2/1	*	*M2/1	*	*M2/1	*
*met(C|)	*	*met(C|)	*	*met(C|)	*	*met(C|)	*
!!!OMD: Secunda pars: Quando natus est
!!section: Secunda pars: Quando natus est
0r	.	0r	.	0r	.	0d	-Quan-
=105	=105	=105	=105	=105	=105	=105	=105
0r	.	0r	.	0r	.	0d	-do
=106	=106	=106	=106	=106	=106	=106	=106
0r	.	0r	.	0A	-Quan-	0c	.
=107	=107	=107	=107	=107	=107	=107	=107
0r	.	0r	.	0A	-do	1r	.
.	.	.	.	.	.	1f	na-
=108	=108	=108	=108	=108	=108	=108	=108
0r	.	0r	.	0G	.	2.g	.
.	.	.	.	.	.	4a	.
.	.	.	.	.	.	4b-	.
.	.	.	.	.	.	4cc	.
.	.	.	.	.	.	[2b-	.
=109	=109	=109	=109	=109	=109	=109	=109
0r	.	0r	.	1r	.	2b-]	.
.	.	.	.	.	.	4a	.
.	.	.	.	.	.	4g	.
.	.	.	.	1c	na-	2a	-tus,-
.	.	.	.	.	.	2g	.
=110	=110	=110	=110	=110	=110	=110	=110
0r	.	0r	.	2.d	.	2b-	-na-
.	.	.	.	.	.	2.a	.
.	.	.	.	4e	.	.	.
.	.	.	.	4f	.	.	.
.	.	.	.	4g	.	4g	.
.	.	.	.	[2f	.	4a	.
.	.	.	.	.	.	4b-	.
=111	=111	=111	=111	=111	=111	=111	=111
0r	.	0r	.	2f]	.	2cc	.
.	.	.	.	4e	.	1dd	.
.	.	.	.	4d	.	.	.
.	.	.	.	2f	.	.	.
.	.	.	.	2e	-tus	4cc	.
.	.	.	.	.	.	4b-	.
=112	=112	=112	=112	=112	=112	=112	=112
0D	-Quan-	0r	.	1f	es,	1a	.
.	.	.	.	2r	.	2.d	-tus
.	.	.	.	[2f	quan-	.	.
.	.	.	.	.	.	4e	.
=113	=113	=113	=113	=113	=113	=113	=113
0D	-do	0A	-Quan-	2f]	.	0f	es
.	.	.	.	2d	.	.	.
.	.	.	.	1f	.	.	.
=114	=114	=114	=114	=114	=114	=114	=114
1C	.	0A	-do	2.e	-do	0r	.
.	.	.	.	4c	.	.	.
1F	na-	.	.	2c	.	.	.
.	.	.	.	2f	na-	.	.
=115	=115	=115	=115	=115	=115	=115	=115
2.G	.	0G	.	2e	.	0r	.
.	.	.	.	2.d	.	.	.
4A	.	.	.	.	.	.	.
[1B-	.	.	.	.	.	.	.
.	.	.	.	4c	.	.	.
.	.	.	.	4B-	.	.	.
.	.	.	.	4A	.	.	.
=116	=116	=116	=116	=116	=116	=116	=116
2B-]	.	1r	.	1G	-tus	0r	.
4A	.	.	.	.	.	.	.
4G	.	.	.	.	.	.	.
2.A	.	1c	na-	1F	es	.	.
4G	.	.	.	.	.	.	.
=117	=117	=117	=117	=117	=117	=117	=117
1.B-	-tus	2.d	-tus	0r	.	0r	.
.	.	4e	.	.	.	.	.
.	.	4f	.	.	.	.	.
.	.	4g	.	.	.	.	.
4A	.	[2f	.	.	.	.	.
4G	.	.	.	.	.	.	.
=118	=118	=118	=118	=118	=118	=118	=118
2A	.	2f]	.	0r	.	1r	.
2B-	.	4e	.	.	.	.	.
.	.	4d	.	.	.	.	.
1G	.	2f	.	.	.	1b-	in-
.	.	2e	.	.	.	.	.
=119	=119	=119	=119	=119	=119	=119	=119
0F	es	0f	es	1r	.	1.a	-ef-
.	.	.	.	1f	in-	.	.
.	.	.	.	.	.	2f	-fa-
=120	=120	=120	=120	=120	=120	=120	=120
0r	.	0r	.	2e	-ef-	2.g	-bi-
.	.	.	.	2c	-fa-	.	.
.	.	.	.	.	.	4a	.
.	.	.	.	2.d	-bi-	1b-	.
.	.	.	.	4e	.	.	.
=121	=121	=121	=121	=121	=121	=121	=121
0r	.	0r	.	1f	.	1a	-li-
.	.	.	.	1e	-li-	1g	-ter,-
=122	=122	=122	=122	=122	=122	=122	=122
1B-	in-	1r	.	1d	-ter	0r	.
2A	-ef-	1f	in-	1r	.	.	.
2F	-fa-	.	.	.	.	.	.
=123	=123	=123	=123	=123	=123	=123	=123
2.G	-bi-	2e	-ef-	0r	.	0r	.
.	.	2c	-fa-	.	.	.	.
4A	.	.	.	.	.	.	.
1B-	.	2.d	-bi-	.	.	.	.
.	.	4e	.	.	.	.	.
=124	=124	=124	=124	=124	=124	=124	=124
1A	-li-	1f	.	0r	.	0r	.
1G	-ter	1e	-li-	.	.	.	.
=125	=125	=125	=125	=125	=125	=125	=125
1B-	ex	2d	-ter	0r	.	0r	.
.	.	2d	ex	.	.	.	.
2A	vir-	2c	vir-	.	.	.	.
[2G	.	[2e-i	.	.	.	.	.
=126	=126	=126	=126	=126	=126	=126	=126
4G]	.	4e-]	.	0r	.	0r	.
4F	.	4d	.	.	.	.	.
2D	.	1d	.	.	.	.	.
1E-i	-gi-	.	.	.	.	.	.
.	.	2c	-gi-	.	.	.	.
=127	=127	=127	=127	=127	=127	=127	=127
0D	-ne	0d	-ne	1r	.	2r	.
.	.	.	.	.	.	2b-	-in-
.	.	.	.	1f	in-	2a	-ef-
.	.	.	.	.	.	2f	-fa-
=128	=128	=128	=128	=128	=128	=128	=128
0r	.	0r	.	2e	-ef-	2.g	-bi-
.	.	.	.	2c	-fa-	.	.
.	.	.	.	.	.	4a	.
.	.	.	.	2.d	-bi-	1b-	.
.	.	.	.	4e	.	.	.
=129	=129	=129	=129	=129	=129	=129	=129
0r	.	0r	.	1f	.	1a	-li-
.	.	.	.	1e	-li-	1g	-ter
=130	=130	=130	=130	=130	=130	=130	=130
0r	.	0r	.	1.d	-ter	1b-	ex
.	.	.	.	.	.	[1a	vir-
.	.	.	.	2c	ex	.	.
=131	=131	=131	=131	=131	=131	=131	=131
0r	.	0r	.	2d	vir-	2a]	.
.	.	.	.	2f	.	4g	.
.	.	.	.	.	.	4f	.
.	.	.	.	2e	.	2g	.
.	.	.	.	[2d	.	[2b-	.
=132	=132	=132	=132	=132	=132	=132	=132
0r	.	0r	.	4d]	.	4b-]	.
.	.	.	.	4c	.	4a	.
.	.	.	.	2A	.	1a	.
.	.	.	.	1B-	-gi-	.	.
.	.	.	.	.	.	2g	-gi-
=133	=133	=133	=133	=133	=133	=133	=133
1r	.	2r	.	0A	-ne	0a	-ne
.	.	1c	tunc	.	.	.	.
1F	tunc	.	.	.	.	.	.
.	.	[2d	im-	.	.	.	.
=134	=134	=134	=134	=134	=134	=134	=134
1G	im-	2d]	.	0r	.	0r	.
.	.	1e	-ple-	.	.	.	.
1A	-ple-	.	.	.	.	.	.
.	.	[2f	-te	.	.	.	.
=135	=135	=135	=135	=135	=135	=135	=135
1.B-	-te	4f]	.	0r	.	0r	.
.	.	4e	.	.	.	.	.
.	.	4d	.	.	.	.	.
.	.	4c	.	.	.	.	.
.	.	2d	.	.	.	.	.
2A	.	2c	sunt	.	.	.	.
=136	=136	=136	=136	=136	=136	=136	=136
1G	sunt	2e-i	scrip-	0r	.	0r	.
.	.	2.d	.	.	.	.	.
1F	scrip-	.	.	.	.	.	.
.	.	4c	.	.	.	.	.
.	.	2A	.	.	.	.	.
=137	=137	=137	=137	=137	=137	=137	=137
2G	-tu-	2B-	-tu-	1r	.	0r	.
2D	.	1A	.	.	.	.	.
1E	.	.	.	2r	.	.	.
.	.	2G	.	2c	tunc	.	.
=138	=138	=138	=138	=138	=138	=138	=138
0D	-re	0A	-re	2d	im-	0r	.
.	.	.	.	2e	-ple-	.	.
.	.	.	.	[1f	-te	.	.
=139	=139	=139	=139	=139	=139	=139	=139
0r	.	0r	.	2f]	.	2r	.
.	.	.	.	4e	.	2f	tunc
.	.	.	.	4d	.	.	.
.	.	.	.	2e	.	2g	im-
.	.	.	.	[2d	sunt	2a	-ple-
=140	=140	=140	=140	=140	=140	=140	=140
0r	.	0r	.	4d]	.	1.b-	-te
.	.	.	.	4c	.	.	.
.	.	.	.	4B-	.	.	.
.	.	.	.	4A	.	.	.
.	.	.	.	2G	.	.	.
.	.	.	.	[2d	scrip-	4a	.
.	.	.	.	.	.	4g	.
=141	=141	=141	=141	=141	=141	=141	=141
0r	.	0r	.	2d]	.	1a	.
.	.	.	.	2c	.	.	.
.	.	.	.	2e-i	-tu-	2g	sunt
.	.	.	.	[2d	.	[2b-	scrip-
=142	=142	=142	=142	=142	=142	=142	=142
0r	.	0r	.	4d]	.	4b-]	.
.	.	.	.	4c	.	4a	.
.	.	.	.	2A	.	1a	-tu-
.	.	.	.	1B-	.	.	.
.	.	.	.	.	.	2g	.
=143	=143	=143	=143	=143	=143	=143	=143
0r	.	0r	.	1A	-re	2a	-re,-
.	.	.	.	.	.	2.cc	-scrip-
.	.	.	.	1c	si-	.	.
.	.	.	.	.	.	4b-	.
.	.	.	.	.	.	4a	.
.	.	.	.	.	.	4g	.
=144	=144	=144	=144	=144	=144	=144	=144
0r	.	0r	.	1d	-cut	2b-	.
.	.	.	.	.	.	2.a	-tu-
.	.	.	.	[1f	plu-	.	.
.	.	.	.	.	.	4g	.
.	.	.	.	.	.	4f	.
.	.	.	.	.	.	4e	.
=145	=145	=145	=145	=145	=145	=145	=145
1r	.	0r	.	2f]	.	1d	-re
.	.	.	.	2f	-vi-	.	.
1F	si-	.	.	1f	-a	1a	.
=146	=146	=146	=146	=146	=146	=146	=146
1G	-cut	0r	.	2e	in	1r	.
.	.	.	.	2.d	vel-	.	.
[1B-	plu-	.	.	.	.	1f	si-
.	.	.	.	4c	.	.	.
.	.	.	.	4B-	.	.	.
.	.	.	.	4A	.	.	.
=147	=147	=147	=147	=147	=147	=147	=147
2B-]	.	0r	.	[0G	-lus,	1g	-cut
2B-	-vi-	.	.	.	.	.	.
1B-	-a,	.	.	.	.	[1b-	plu-
=148	=148	=148	=148	=148	=148	=148	=148
0r	.	1r	.	0G]	.	2b-]	.
.	.	.	.	.	.	2b-	-vi-
.	.	1B-	si-	.	.	1b-	-a
=149	=149	=149	=149	=149	=149	=149	=149
0r	.	1c	-cut	0r	.	2r	.
.	.	.	.	.	.	2.g	in
.	.	[1e-	plu-	.	.	.	.
.	.	.	.	.	.	4a	.
.	.	.	.	.	.	4b-	.
.	.	.	.	.	.	4cc	.
=150	=150	=150	=150	=150	=150	=150	=150
0r	.	2e-]	.	1r	.	2g	.
.	.	2e-i	-vi-	.	.	2.cc	vel-
.	.	1e-i	-a	1c	si-	.	.
.	.	.	.	.	.	4b-	.
.	.	.	.	.	.	4a	.
.	.	.	.	.	.	4g	.
=151	=151	=151	=151	=151	=151	=151	=151
0r	.	2d	in	1d	-cut	2b-	.
.	.	2.f	vel-	.	.	1a	.
.	.	.	.	[1f	plu-	.	.
.	.	4e-i	.	.	.	.	.
.	.	4d	.	.	.	[2dd	.
.	.	4c	.	.	.	.	.
=152	=152	=152	=152	=152	=152	=152	=152
1r	.	2B-	.	2f]	.	4dd]	.
.	.	.	.	.	.	4cc	.
.	.	2d	.	2f	-vi-	1b-	.
1F	si-	1c	.	2.f	-a	.	.
.	.	.	.	.	.	2a	.
.	.	.	.	4e	.	.	.
=153	=153	=153	=153	=153	=153	=153	=153
1G	-cut	2.B-	-lus,	4d	.	0b-	-lus
.	.	.	.	4c	.	.	.
.	.	.	.	2.B-	.	.	.
.	.	4c	.	.	.	.	.
[1B-	plu-	2d	.	.	.	.	.
.	.	.	.	4c	.	.	.
.	.	2G	in	2d	in	.	.
=154	=154	=154	=154	=154	=154	=154	=154
2B-]	.	2d	vel-	2G	vel-	0r	.
2B-	-vi-	2G	.	2d	.	.	.
1B-	-a	1d	-lus	2G	.	.	.
.	.	.	.	2B-	.	.	.
=155	=155	=155	=155	=155	=155	=155	=155
2A	in	0r	.	2c	.	0r	.
2.B-	vel-	.	.	2d	.	.	.
.	.	.	.	2G	.	.	.
4A	.	.	.	.	.	.	.
4B-	.	.	.	[2g	.	.	.
4G	.	.	.	.	.	.	.
=156	=156	=156	=156	=156	=156	=156	=156
1A	.	1c	si-	2g]	.	1r	.
.	.	.	.	2f#i	.	.	.
1G	-lus	1d	-cut	2g	-lus	2r	.
.	.	.	.	2G	de-	2dd	de-
=157	=157	=157	=157	=157	=157	=157	=157
0r	.	1.f	plu-	2A	-scen-	2cc	-scen-
.	.	.	.	1B-	-di-	1dd	-di-
.	.	2f	-vi-	4A	.	4cc	.
.	.	.	.	4G	.	4b-	.
=158	=158	=158	=158	=158	=158	=158	=158
0r	.	1f	-a	2F	-sti,	4a	.
.	.	.	.	.	.	4g	.
.	.	.	.	2d	de-	4a	.
.	.	.	.	.	.	4b-	.
.	.	2e	in	2c	-scen-	2cc	.
.	.	[2f	vel-	[2d	-di-	[2a	.
=159	=159	=159	=159	=159	=159	=159	=159
0r	.	4f]	.	2d]	.	2a]	.
.	.	4e	.	.	.	.	.
.	.	4f	.	4c	.	1dd	.
.	.	4d	.	4B-	.	.	.
.	.	1e	.	1A	.	.	.
.	.	.	.	.	.	2cc#i	.
=160	=160	=160	=160	=160	=160	=160	=160
2r	.	[0d	-lus	2.B-	-sti,	0dd	-sti,
2G	de-	.	.	.	.	.	.
.	.	.	.	4G	.	.	.
2F	-scen-	.	.	2A	.	.	.
[2G	-di-	.	.	2B-	.	.	.
=161	=161	=161	=161	=161	=161	=161	=161
4G]	.	0d_	.	2r	.	0r	.
4A	.	.	.	.	.	.	.
4B-	.	.	.	2G	de-	.	.
4G	.	.	.	.	.	.	.
2A	.	.	.	2F	-scen-	.	.
2G	-sti,	.	.	[2G	-di-	.	.
=162	=162	=162	=162	=162	=162	=162	=162
2r	.	0d]	.	4G]	.	0r	.
.	.	.	.	4A	.	.	.
2G	de-	.	.	4B-	.	.	.
.	.	.	.	4G	.	.	.
2F	-scen-	.	.	2A	.	.	.
[2G	-di-	.	.	2G	-sti,	.	.
=163	=163	=163	=163	=163	=163	=163	=163
4G]	.	0r	.	2r	.	0r	.
4A	.	.	.	.	.	.	.
4B-	.	.	.	2G	de-	.	.
4G	.	.	.	.	.	.	.
2A	.	.	.	2F	-scen-	.	.
2G	-sti,	.	.	[2G	-di-	.	.
=164	=164	=164	=164	=164	=164	=164	=164
0r	.	2r	.	4G]	.	0r	.
.	.	.	.	4A	.	.	.
.	.	2d	de-	4B-	.	.	.
.	.	.	.	4G	.	.	.
.	.	2c	.	2A	.	.	.
.	.	[2d	-scen-	2G	.	.	.
=165	=165	=165	=165	=165	=165	=165	=165
0r	.	4d]	.	1d	-sti,	2r	.
.	.	4e	.	.	.	.	.
.	.	4f	.	.	.	2dd	de-
.	.	4d	.	.	.	.	.
.	.	2e	-di-	1r	.	2cc	-scen-
.	.	2d	-sti,	.	.	[2dd	-di-
=166	=166	=166	=166	=166	=166	=166	=166
0r	.	2r	.	0r	.	4dd]	.
.	.	.	.	.	.	4ee	.
.	.	2d	de-	.	.	4ff	.
.	.	.	.	.	.	4dd	.
.	.	2c	.	.	.	2ee	.
.	.	[2d	-scen-	.	.	[2ff	.
=167	=167	=167	=167	=167	=167	=167	=167
0r	.	4d]	.	0r	.	4ff]	.
.	.	4e	.	.	.	4ee	.
.	.	4f	.	.	.	1dd	.
.	.	4d	.	.	.	.	.
.	.	1e	-di-	.	.	.	.
.	.	.	.	.	.	2cc#i	.
=168	=168	=168	=168	=168	=168	=168	=168
1G	ut	[0d	-sti,	1r	.	[0dd	-sti,
[1B-	sal-	.	.	1d	ut	.	.
=169	=169	=169	=169	=169	=169	=169	=169
2B-]	.	0d]	.	1.f	sal-	0dd]	.
2B-	-vum	.	.	.	.	.	.
1B-	fa-	.	.	.	.	.	.
.	.	.	.	2f	-vum	.	.
=170	=170	=170	=170	=170	=170	=170	=170
1A	-ce-	0r	.	1f	fa-	0r	.
1G	-res	.	.	1e	-ce-	.	.
=171	=171	=171	=171	=171	=171	=171	=171
1.B-	ge-	0r	.	1d	-res	0r	.
.	.	.	.	[1f	ge-	.	.
2A	.	.	.	.	.	.	.
=172	=172	=172	=172	=172	=172	=172	=172
2F	.	0r	.	2f]	.	0r	.
2G	-nus	.	.	2e	-nus	.	.
2A	hu-	.	.	2c	hu-	.	.
[2B-	-ma-	.	.	[2d	-ma-	.	.
=173	=173	=173	=173	=173	=173	=173	=173
4B-]	.	1r	.	4d]	.	0r	.
4A	.	.	.	4c	.	.	.
4G	.	.	.	4B-	.	.	.
4F	.	.	.	4A	.	.	.
1G	.	1d	ut	1B-	.	.	.
=174	=174	=174	=174	=174	=174	=174	=174
0D	-num.	1.f	sal-	0A	-num.	1r	.
.	.	.	.	.	.	1a	ut
.	.	2f	-vum	.	.	.	.
=175	=175	=175	=175	=175	=175	=175	=175
0r	.	1f	fa-	0r	.	2cc	sal-
.	.	.	.	.	.	2cc	-vum
.	.	1e	-ce-	.	.	1cc	fa-
=176	=176	=176	=176	=176	=176	=176	=176
0r	.	1d	-res	0r	.	1b-	-ce-
.	.	[1f	ge-	.	.	1a	-res
=177	=177	=177	=177	=177	=177	=177	=177
0r	.	2f]	.	0r	.	1.cc	ge-
.	.	2e	.	.	.	.	.
.	.	2c	.	.	.	.	.
.	.	2d	-nus	.	.	2b-	-nus
=178	=178	=178	=178	=178	=178	=178	=178
0r	.	2e	hu-	0r	.	2g	hu-
.	.	2.f	-ma-	.	.	2.a	-ma-
.	.	4e	.	.	.	4g	.
.	.	4d	.	.	.	[2b-	.
.	.	4c	.	.	.	.	.
=179	=179	=179	=179	=179	=179	=179	=179
0r	.	2d	.	0r	.	2b-]	.
.	.	2A	.	.	.	1a	.
.	.	1B-	.	.	.	.	.
.	.	.	.	.	.	2g	.
=180	=180	=180	=180	=180	=180	=180	=180
[0D	Te	1A	-num.	1.d	Te	0a	-num.
.	.	[1d	Te	.	.	.	.
.	.	.	.	2e	lau-	.	.
=181	=181	=181	=181	=181	=181	=181	=181
0D]	.	2d]	.	1.f	-da-	1r	.
.	.	2e	lau-	.	.	.	.
.	.	[1f	-da-	.	.	[1a	Te
.	.	.	.	2e	-mus,	.	.
=182	=182	=182	=182	=182	=182	=182	=182
0F	.	2f]	.	1c	te	2a]	.
.	.	2e	-mus,	.	.	2b-	lau-
.	.	[1c	te	1A	lau-	[1cc	-da-
=183	=183	=183	=183	=183	=183	=183	=183
0C	lau-	2c]	.	1.c	-da-	2cc]	.
.	.	2d	lau-	.	.	2b-	-mus,
.	.	[1e-	-da-	.	.	[1g	te
.	.	.	.	2B-	.	.	.
=184	=184	=184	=184	=184	=184	=184	=184
[0E-	-da-	2e-]	.	0G	-mus	1g]	.
.	.	2d	.	.	.	.	.
.	.	[1B-	.	.	.	1g	lau-
=185	=185	=185	=185	=185	=185	=185	=185
0E-]	.	2B-]	.	0g	de-	1.b-	-da-
.	.	4A	.	.	.	.	.
.	.	4G	.	.	.	.	.
.	.	2B-	.	.	.	.	.
.	.	2c	.	.	.	4a	.
.	.	.	.	.	.	4g	.
=186	=186	=186	=186	=186	=186	=186	=186
[0D	-mus	2d	.	0f	-us,	1b-	.
.	.	2e	.	.	.	.	.
.	.	2f	-mus	.	.	1a	-mus
.	.	2d	.	.	.	.	.
=187	=187	=187	=187	=187	=187	=187	=187
0D]	.	1.f	de-	1d	de-	1r	.
.	.	.	.	[1f	.	1a	de-
.	.	2e	.	.	.	.	.
=188	=188	=188	=188	=188	=188	=188	=188
0F	de-	1c	.	2f]	.	2.a	-us
.	.	.	.	2e	.	.	.
.	.	.	.	.	.	4b-	.
.	.	1A	-us	1c	-us	4cc	.
.	.	.	.	.	.	4dd	.
.	.	.	.	.	.	[2cc	.
=189	=189	=189	=189	=189	=189	=189	=189
0F	-us	1.c	no-	1A	no-	4cc]	.
.	.	.	.	.	.	4b-	.
.	.	.	.	.	.	4a	.
.	.	.	.	.	.	4g	.
.	.	.	.	[1c	.	1a	.
.	.	2d	.	.	.	.	.
=190	=190	=190	=190	=190	=190	=190	=190
[0E-i	.	1.e-i	.	2c]	.	2.g	no-
.	.	.	.	2B-	.	.	.
.	.	.	.	.	.	4a	.
.	.	.	.	[1G	.	4b-	.
.	.	.	.	.	.	4cc	.
.	.	2d	.	.	.	[2b-	.
=191	=191	=191	=191	=191	=191	=191	=191
0E-]	.	1B-	.	2G]	.	4b-]	.
.	.	.	.	.	.	4a	.
.	.	.	.	2A	.	4g	.
.	.	.	.	.	.	4f	.
.	.	1G	.	2B-	.	1g	.
.	.	.	.	2c	.	.	.
=192	=192	=192	=192	=192	=192	=192	=192
0D	no-	1B-	.	2d	.	[0fl	-ster.-
.	.	.	.	2e	.	.	.
.	.	1A	.	2f	.	.	.
.	.	.	.	[2d	.	.	.
=193	=193	=193	=193	=193	=193	=193	=193
[0Dl	-ster.-	[0dl	-ster.-	4d]	.	0f_	.
.	.	.	.	4c	.	.	.
.	.	.	.	2A	.	.	.
.	.	.	.	1B-	.	.	.
=194	=194	=194	=194	=194	=194	=194	=194
0D]	.	0d]	.	0Al	-ster.-	0f]	.
!!LO:LB:i:g=z
=195||	=195||	=195||	=195||	=195||	=195||	=195||	=195||
*>C	*>C	*>C	*>C	*>C	*>C	*>C	*>C
*clefF4	*	*clefGv2	*	*clefGv2	*	*clefG2	*
*k[b-]	*	*k[b-]	*	*k[b-]	*	*k[b-]	*
*M2/1	*	*M2/1	*	*M2/1	*	*M2/1	*
*met(C|)	*	*met(C|)	*	*met(C|)	*	*met(C|)	*
!!!OMD: Terta pars: Rubum, quem viderat Moyses
!!section: Terta pars: Rubum, quem viderat Moyses
0D	-Ru-	0r	.	0r	.	0r	.
=196	=196	=196	=196	=196	=196	=196	=196
1E	-bum	0r	.	0r	.	0r	.
1F	quem	.	.	.	.	.	.
=197	=197	=197	=197	=197	=197	=197	=197
1.G	vi-	0r	.	0r	.	0r	.
2G	-de-	.	.	.	.	.	.
=198	=198	=198	=198	=198	=198	=198	=198
1G	-rat	0G	-Ru-	0r	.	0r	.
1E	Mo-	.	.	.	.	.	.
=199	=199	=199	=199	=199	=199	=199	=199
1F	-y-	1A	-bum	0r	.	0r	.
1G	.	1B-	quem	.	.	.	.
=200	=200	=200	=200	=200	=200	=200	=200
[0C	-ses,	1.c	vi-	0r	.	0r	.
.	.	2c	-de-	.	.	.	.
=201	=201	=201	=201	=201	=201	=201	=201
0C]	.	1.c	-rat	1r	.	0g	-Ru-
.	.	.	.	[1c	-Ru-	.	.
.	.	2B-	.	.	.	.	.
=202	=202	=202	=202	=202	=202	=202	=202
0r	.	1A	.	1c]	.	1a	-bum
.	.	1G	Mo-	1d	-bum	1b-	quem
=203	=203	=203	=203	=203	=203	=203	=203
0r	.	1c	-y-	1e	quem	1.cc	vi-
.	.	1F	.	[1f	vi-	.	.
.	.	.	.	.	.	2cc	-de-
=204	=204	=204	=204	=204	=204	=204	=204
0r	.	1.A	.	2f]	.	[0cc	-rat
.	.	.	.	2f	-de-	.	.
.	.	.	.	1f	-rat	.	.
.	.	2B-	.	.	.	.	.
=205	=205	=205	=205	=205	=205	=205	=205
0r	.	0c	-ses,	1.e-	Mo-	0cc_	.
.	.	.	.	4d	.	.	.
.	.	.	.	4c	.	.	.
=206	=206	=206	=206	=206	=206	=206	=206
1.C	Mo-	1r	.	1e-i	.	0cc]	.
.	.	[1c	Mo-	1e-i	-y-	.	.
2D	.	.	.	.	.	.	.
=207	=207	=207	=207	=207	=207	=207	=207
1E-	.	1c]	.	[0e-i	-ses,	1.g	Mo-
1E-i	-y-	1B-	.	.	.	.	.
.	.	.	.	.	.	2a	.
=208	=208	=208	=208	=208	=208	=208	=208
0E-i	-ses	1G	.	0e-]	.	1b-	.
.	.	[1B-	.	.	.	1b-	-y-
=209	=209	=209	=209	=209	=209	=209	=209
0BB-	.	2B-]	.	1.d	in-	0b-	-ses,
.	.	2B-	-y-	.	.	.	.
.	.	2.B-	-ses	.	.	.	.
.	.	.	.	2e-i	-com-	.	.
.	.	4A	.	.	.	.	.
=210	=210	=210	=210	=210	=210	=210	=210
0r	.	[0F	.	1f	-bu-	1.a	in-
.	.	.	.	1f	-stum	.	.
.	.	.	.	.	.	2b-	-com-
=211	=211	=211	=211	=211	=211	=211	=211
0r	.	0F]	.	1r	.	1cc	-bu-
.	.	.	.	1f	con-	1cc	-stum
=212	=212	=212	=212	=212	=212	=212	=212
0r	.	0r	.	1f	-ser-	1r	.
.	.	.	.	1f	-va-	1cc	con-
=213	=213	=213	=213	=213	=213	=213	=213
0r	.	0r	.	1.e-	.	1cc	-ser-
.	.	.	.	.	.	1cc	-va-
.	.	.	.	4d	.	.	.
.	.	.	.	4c	.	.	.
=214	=214	=214	=214	=214	=214	=214	=214
0r	.	0r	.	2.e-i	.	1.b-	.
.	.	.	.	4f	.	.	.
.	.	.	.	[1g	-tam	.	.
.	.	.	.	.	.	4a	.
.	.	.	.	.	.	4g	.
=215	=215	=215	=215	=215	=215	=215	=215
0r	.	0r	.	1g]	.	2.b-	.
.	.	.	.	.	.	4cc	.
.	.	.	.	1f	a-	[1dd	-tam
=216	=216	=216	=216	=216	=216	=216	=216
0r	.	0r	.	2g	-gno-	1dd]	.
.	.	.	.	2d	.	.	.
.	.	.	.	1e-i	-vi-	1cc	a-
=217	=217	=217	=217	=217	=217	=217	=217
1.D	in-	0r	.	0d	-mus,	2dd	-gno-
.	.	.	.	.	.	2a	.
.	.	.	.	.	.	1b-	-vi-
2E	-com-	.	.	.	.	.	.
=218	=218	=218	=218	=218	=218	=218	=218
1F	-bu-	1.A	in-	0r	.	0a	-mus,
1F	-stum	.	.	.	.	.	.
.	.	2B-	-com-	.	.	.	.
=219	=219	=219	=219	=219	=219	=219	=219
1r	.	1c	-bu-	0r	.	0r	.
1F	con-	1c	-stum	.	.	.	.
=220	=220	=220	=220	=220	=220	=220	=220
1F	-ser-	1r	.	0r	.	0r	.
1F	-va-	1c	con-	.	.	.	.
=221	=221	=221	=221	=221	=221	=221	=221
1.E-	.	1c	-ser-	0r	.	0r	.
.	.	1c	-va-	.	.	.	.
4D	.	.	.	.	.	.	.
4C	.	.	.	.	.	.	.
=222	=222	=222	=222	=222	=222	=222	=222
2.E-i	.	1.B-	.	0r	.	0r	.
4F	.	.	.	.	.	.	.
[1G	-tam	.	.	.	.	.	.
.	.	4A	.	.	.	.	.
.	.	4G	.	.	.	.	.
=223	=223	=223	=223	=223	=223	=223	=223
1G]	.	2.B-	.	0r	.	0r	.
.	.	4c	.	.	.	.	.
1F	a-	[1d	-tam	.	.	.	.
=224	=224	=224	=224	=224	=224	=224	=224
2G	-gno-	1d]	.	0r	.	0r	.
2D	.	.	.	.	.	.	.
1E-i	-vi-	1c	a-	.	.	.	.
=225	=225	=225	=225	=225	=225	=225	=225
1.D	-mus,	2d	-gno-	0r	.	0r	.
.	.	2A	.	.	.	.	.
.	.	1B-	-vi-	.	.	.	.
2Eni	.	.	.	.	.	.	.
=226	=226	=226	=226	=226	=226	=226	=226
1F	.	1A	-mus,	0c	tu-	0r	.
2.C	.	[1c	a-	.	.	.	.
4D	.	.	.	.	.	.	.
=227	=227	=227	=227	=227	=227	=227	=227
2.E	.	2c]	.	0g	.	0g	tu-
.	.	2B-	.	.	.	.	.
4F	.	.	.	.	.	.	.
[1G	.	2.G	-gno-	.	.	.	.
.	.	4A	.	.	.	.	.
=228	=228	=228	=228	=228	=228	=228	=228
1G]	.	1B-	.	1g	-am	0dd	.
1r	.	[1G	-vi-	1g	lau-	.	.
=229	=229	=229	=229	=229	=229	=229	=229
0r	.	2G]	.	1.g	-da-	1dd	-am
.	.	2A	.	.	.	.	.
.	.	2B-	.	.	.	1dd	lau-
.	.	2c	.	2g	-bi-	.	.
=230	=230	=230	=230	=230	=230	=230	=230
0r	.	1d	.	1f	-lem	1.dd	-da-
.	.	1B-	.	1d	vir-	.	.
.	.	.	.	.	.	2dd	-bi-
=231	=231	=231	=231	=231	=231	=231	=231
0C	tu-	0c	-mus	2e-i	-gi-	1cc	-lem
.	.	.	.	2c	-ni-	.	.
.	.	.	.	[1e-i	-ta-	1cc	vir-
=232	=232	=232	=232	=232	=232	=232	=232
0G	.	0G	tu-	1e-]	.	2b-	-gi-
.	.	.	.	.	.	2g	-ni-
.	.	.	.	1d	.	[1dd	-ta-
=233	=233	=233	=233	=233	=233	=233	=233
1G	-am	0d	.	1.B-	.	2dd]	.
.	.	.	.	.	.	2cc	.
1G	lau-	.	.	.	.	[1b-	.
.	.	.	.	4A	.	.	.
.	.	.	.	4G	.	.	.
=234	=234	=234	=234	=234	=234	=234	=234
1.G	-da-	1d	-am	2.B-	.	2b-]	.
.	.	.	.	.	.	4a	.
.	.	.	.	4c	.	4g	.
.	.	1d	lau-	2.d	.	1b-	.
2G	-bi-	.	.	.	.	.	.
.	.	.	.	4e	.	.	.
=235	=235	=235	=235	=235	=235	=235	=235
1F	-lem	1.d	-da-	0f	-tem,-	0a	-tem,-
1D	vir-	.	.	.	.	.	.
.	.	2d	-bi-	.	.	.	.
=236	=236	=236	=236	=236	=236	=236	=236
1E	-gi-	1c	-lem	0r	.	0r	.
1F	-ni-	1A	vir-	.	.	.	.
=237	=237	=237	=237	=237	=237	=237	=237
2.G	-ta-	1B-	-gi-	0r	.	0r	.
4F	.	.	.	.	.	.	.
1E	.	1c	-ni-	.	.	.	.
=238	=238	=238	=238	=238	=238	=238	=238
0D	-tem.	2.d	-ta-	1r	.	0r	.
.	.	4c	.	.	.	.	.
.	.	1B-	.	1d	-vir-	.	.
=239	=239	=239	=239	=239	=239	=239	=239
0r	.	0A	-tem.	1e	-gi-	1r	.
.	.	.	.	1f	-ni-	1a	-vir-
=240	=240	=240	=240	=240	=240	=240	=240
0r	.	0r	.	2.g	-ta-	1b-	-gi-
.	.	.	.	4f	.	.	.
.	.	.	.	1e	.	1cc	-ni-
=241	=241	=241	=241	=241	=241	=241	=241
1r	.	0r	.	[0d	-tem.	2.dd	-ta-
.	.	.	.	.	.	4cc	.
1G	De-	.	.	.	.	1b-	.
=242	=242	=242	=242	=242	=242	=242	=242
1F	-i	1r	.	0d]	.	[0a	-tem.
1D	.	1d	De-	.	.	.	.
=243	=243	=243	=243	=243	=243	=243	=243
1.F	ge-	1c	-i	0r	.	0a]	.
.	.	1A	.	.	.	.	.
4E	.	.	.	.	.	.	.
4D	.	.	.	.	.	.	.
=244	=244	=244	=244	=244	=244	=244	=244
2E	.	1.c	ge-	0r	.	0r	.
2F	.	.	.	.	.	.	.
2.C	.	.	.	.	.	.	.
.	.	4B-	.	.	.	.	.
4D	.	4A	.	.	.	.	.
=245	=245	=245	=245	=245	=245	=245	=245
4E	.	2.G	.	0r	.	0r	.
4F	.	.	.	.	.	.	.
2.G	.	.	.	.	.	.	.
.	.	4B-	.	.	.	.	.
.	.	1A	-ni-	.	.	.	.
4F#i	.	.	.	.	.	.	.
4F#i	-ni-	.	.	.	.	.	.
4E	.	.	.	.	.	.	.
=246	=246	=246	=246	=246	=246	=246	=246
1G	-trix,	0G	-trix,	1r	.	0r	.
1E	.	.	.	1g	De-	.	.
=247	=247	=247	=247	=247	=247	=247	=247
0D	.	0d	.	1f	-i	1r	.
.	.	.	.	1d	.	1dd	De-
=248	=248	=248	=248	=248	=248	=248	=248
0r	.	0r	.	1.f	ge-	1cc	-i
.	.	.	.	.	.	1a	.
.	.	.	.	4e	.	.	.
.	.	.	.	4d	.	.	.
=249	=249	=249	=249	=249	=249	=249	=249
0r	.	0r	.	2e	.	1.cc	ge-
.	.	.	.	2f	.	.	.
.	.	.	.	2.c	.	.	.
.	.	.	.	.	.	4b-	.
.	.	.	.	4d	.	4a	.
=250	=250	=250	=250	=250	=250	=250	=250
0r	.	0r	.	4e	.	2g	.
.	.	.	.	4f	.	.	.
.	.	.	.	2.g	.	2b-	.
.	.	.	.	.	.	1a	-ni-
.	.	.	.	4f#i	.	.	.
.	.	.	.	4f#i	-ni-	.	.
.	.	.	.	4e	.	.	.
=251	=251	=251	=251	=251	=251	=251	=251
2r	.	0r	.	1g	-trix,	2g	-trix,
2G	in-	.	.	.	.	2b-	in-
2G	-ter-	.	.	2.d	.	2b-	-ter-
2G	-ce-	.	.	.	.	2b-	-ce-
.	.	.	.	4e	.	.	.
=252	=252	=252	=252	=252	=252	=252	=252
2F	-de	0r	.	1f	.	2a	-de
2F	pro	.	.	.	.	2a	pro
1G	no-	.	.	1B-	.	1b-	no-
=253	=253	=253	=253	=253	=253	=253	=253
0D	-bis,	2r	.	2r	.	0a	-bis,
.	.	2d	in-	2f	in-	.	.
.	.	2d	-ter-	2f	-ter-	.	.
.	.	2d	-ce-	2f	-ce-	.	.
=254	=254	=254	=254	=254	=254	=254	=254
0r	.	2c	-de	2e	-de	1r	.
.	.	2c	pro	2e	pro	.	.
.	.	1d	no-	1f	no-	2r	.
.	.	.	.	.	.	2dd	in-
=255	=255	=255	=255	=255	=255	=255	=255
2r	.	[0Al	-bis.-	2e	-bis,	2cc	-ter-
2D	in-	.	.	2f	in-	2dd	-ce-
2D	-ter-	.	.	2f	-ter-	1a	-de
2D	-ce-	.	.	2f	-ce-	.	.
=256	=256	=256	=256	=256	=256	=256	=256
2C	-de	0A_	.	2e	-de	2r	.
2C	pro	.	.	2e	pro	2cc	pro
1D	no-	.	.	1f	.	2.a	no-
.	.	.	.	.	.	4b-	.
=257	=257	=257	=257	=257	=257	=257	=257
0AAl	-bis.-	0A]	.	0el	no-	0ccl	-bis.-
!!LO:LB:i:g=z
=258||	=258||	=258||	=258||	=258||	=258||	=258||	=258||
*>D	*>D	*>D	*>D	*>D	*>D	*>D	*>D
*clefF4	*	*clefGv2	*	*clefGv2	*	*clefG2	*
*k[b-]	*	*k[b-]	*	*k[b-]	*	*k[b-]	*
*M2/1	*	*M2/1	*	*M2/1	*	*M2/1	*
*met(C|)	*	*met(C|)	*	*met(C|)	*	*met(C|)	*
!!!OMD: Quarta pars: Germinavit radix Jesse
!!section: Quarta pars: Germinavit radix Jesse
1.D	-Ger-	0r	.	0r	.	0r	.
2E	-mi-	.	.	.	.	.	.
=259	=259	=259	=259	=259	=259	=259	=259
1F	-na-	0r	.	0r	.	0r	.
1G	-vit	.	.	.	.	.	.
=260	=260	=260	=260	=260	=260	=260	=260
1E	ra-	1.G	-Ger-	0r	.	0r	.
[1G	.	.	.	.	.	.	.
.	.	2A	-mi-	.	.	.	.
=261	=261	=261	=261	=261	=261	=261	=261
1G]	.	1B-	-na-	0r	.	0r	.
1A	.	1c	-vit	.	.	.	.
=262	=262	=262	=262	=262	=262	=262	=262
1.F	.	2.A	ra-	0r	.	0r	.
.	.	4B-	.	.	.	.	.
.	.	2c	.	.	.	.	.
4E	.	[2d	.	.	.	.	.
4D	.	.	.	.	.	.	.
=263	=263	=263	=263	=263	=263	=263	=263
2F	.	2d]	.	0r	.	0r	.
2G	-dix	1B-	.	.	.	.	.
1E	Jes-	.	.	.	.	.	.
.	.	4A	.	.	.	.	.
.	.	4G	.	.	.	.	.
=264	=264	=264	=264	=264	=264	=264	=264
[0D	-se	2.B-	.	0r	.	0r	.
.	.	4c	.	.	.	.	.
.	.	2A	-dix	.	.	.	.
.	.	[2B-	Jes-	.	.	.	.
=265	=265	=265	=265	=265	=265	=265	=265
0D]	.	2B-]	.	1.d	-Ger-	0r	.
.	.	4A	.	.	.	.	.
.	.	4G	.	.	.	.	.
.	.	2B-	.	.	.	.	.
.	.	2c	.	2e	-mi-	.	.
=266	=266	=266	=266	=266	=266	=266	=266
0r	.	1A	.	1f	-na-	0r	.
.	.	1G	-se	1g	-vit	.	.
=267	=267	=267	=267	=267	=267	=267	=267
0r	.	0r	.	1e	ra-	1.g	-Ger-
.	.	.	.	[1g	.	.	.
.	.	.	.	.	.	2a	-mi-
=268	=268	=268	=268	=268	=268	=268	=268
0r	.	0r	.	1g]	.	1b-	-na-
.	.	.	.	1a	.	1cc	-vit
=269	=269	=269	=269	=269	=269	=269	=269
0r	.	0r	.	1.f	.	2.a	ra-
.	.	.	.	.	.	4b-	.
.	.	.	.	.	.	2cc	.
.	.	.	.	4e	.	[2dd	.
.	.	.	.	4d	.	.	.
=270	=270	=270	=270	=270	=270	=270	=270
0r	.	0r	.	2f	.	2dd]	.
.	.	.	.	2g	-dix	1b-	-dix
.	.	.	.	1e	Jes-	.	.
.	.	.	.	.	.	4a	.
.	.	.	.	.	.	4g	.
=271	=271	=271	=271	=271	=271	=271	=271
0r	.	0r	.	1d	-se	2.b-	Jes-
.	.	.	.	.	.	4cc	.
.	.	.	.	1f	.	1a	.
=272	=272	=272	=272	=272	=272	=272	=272
0r	.	0r	.	1e	.	1g	-se,-
.	.	.	.	2d	Jes-	[1b-	-Jes-
.	.	.	.	[2g	.	.	.
=273	=273	=273	=273	=273	=273	=273	=273
0r	.	0r	.	2g]	.	2b-]	.
.	.	.	.	4f	.	4a	.
.	.	.	.	4e	.	4g	.
.	.	.	.	2f	.	2a	.
.	.	.	.	[2g	.	[2b-	.
=274	=274	=274	=274	=274	=274	=274	=274
0r	.	0r	.	2g]	.	2b-]	.
.	.	.	.	4f	.	4a	.
.	.	.	.	4e	.	4g	.
.	.	.	.	4f	.	2a	.
.	.	.	.	4e	.	.	.
.	.	.	.	4d	.	[2b-	.
.	.	.	.	4c	.	.	.
=275	=275	=275	=275	=275	=275	=275	=275
1r	.	0r	.	4d	.	4b-]	.
.	.	.	.	4c	.	4cc	.
.	.	.	.	1f	.	2a	.
1C	or-	.	.	.	.	1g	.
.	.	.	.	2e	.	.	.
=276	=276	=276	=276	=276	=276	=276	=276
1D	-ta	0r	.	1.f	-se	[0f	-se
[1F	est	.	.	.	.	.	.
.	.	.	.	2e	.	.	.
=277	=277	=277	=277	=277	=277	=277	=277
2F]	.	1r	.	1d	.	0f]	.
2G	.	.	.	.	.	.	.
1A	.	1F	or-	1c	or-	.	.
=278	=278	=278	=278	=278	=278	=278	=278
1B-	stel-	1G	-ta	2B-	-ta	0r	.
.	.	.	.	2G	.	.	.
1BB-	-la	[1B-	est	[1d	est	.	.
=279	=279	=279	=279	=279	=279	=279	=279
2r	.	2B-]	.	2d]	.	0r	.
2F	ex	2A	.	2c	.	.	.
2G	Ja-	1B-	.	2B-	.	.	.
[2B-	.	.	.	4A	.	.	.
.	.	.	.	4G	.	.	.
=280	=280	=280	=280	=280	=280	=280	=280
4B-]	.	1c	stel-	1F	stel-	0r	.
4A	.	.	.	.	.	.	.
4A	.	.	.	.	.	.	.
4G	.	.	.	.	.	.	.
1B-	-cob.	[1d	.	1f	-la,-	.	.
=281	=281	=281	=281	=281	=281	=281	=281
0BB-	.	2d]	.	2r	.	1r	.
.	.	4c	.	1f	-stel-	.	.
.	.	4B-	.	.	.	.	.
.	.	1d	-la	.	.	1f	or-
.	.	.	.	2d	.	.	.
=282	=282	=282	=282	=282	=282	=282	=282
0r	.	1c	ex	1e-i	.	1g	-ta
.	.	1B-	.	2d	.	[1b-	est
.	.	.	.	2B-	.	.	.
=283	=283	=283	=283	=283	=283	=283	=283
2r	.	0d	Ja-	1f	-la,-	2b-]	.
2F	ex	.	.	.	.	2a	.
2G	Ja-	.	.	1r	.	1b-	.
[2B-	.	.	.	.	.	.	.
=284	=284	=284	=284	=284	=284	=284	=284
4B-]	.	1c	.	1F	-or-	1cc	stel-
4A	.	.	.	.	.	.	.
4A	.	.	.	.	.	.	.
4G	.	.	.	.	.	.	.
1B-	-cob,	1B-	.	2.B-	-ta	[1dd	.
.	.	.	.	4c	.	.	.
=285	=285	=285	=285	=285	=285	=285	=285
0BB-	.	1.f	.	4d	.	2dd]	.
.	.	.	.	4e	.	.	.
.	.	.	.	2f	.	4cc	.
.	.	.	.	.	.	4b-	.
.	.	.	.	2F	est	1dd	-la
.	.	2d	.	2B-	stel-	.	.
=286	=286	=286	=286	=286	=286	=286	=286
0r	.	2e	.	2A	.	2.cc	ex
.	.	2.f	.	2F	.	.	.
.	.	.	.	.	.	4b-	.
.	.	.	.	2A	.	2cc	.
.	.	4e	.	.	.	.	.
.	.	4d	.	2B-	.	[2dd	Ja-
.	.	4c	.	.	.	.	.
=287	=287	=287	=287	=287	=287	=287	=287
1r	.	1B-	.	1G	.	4dd]	.
.	.	.	.	.	.	4cc	.
.	.	.	.	.	.	1b-	.
1F	ex	1c	.	2F	-la	.	.
.	.	.	.	2f	ex	2a	.
=288	=288	=288	=288	=288	=288	=288	=288
2.G	Ja-	0B-	-cob.	2e-i	Ja-	[0b-	-cob.
.	.	.	.	2.d	.	.	.
4F	.	.	.	.	.	.	.
4G	.	.	.	.	.	.	.
4A	.	.	.	4c	.	.	.
[2B-	.	.	.	4B-	.	.	.
.	.	.	.	4A	.	.	.
=289	=289	=289	=289	=289	=289	=289	=289
4B-]	.	1r	.	4G	.	0b-]	.
4A	.	.	.	4F	.	.	.
4G	.	.	.	1f	.	.	.
4F	.	.	.	.	.	.	.
1G	.	1B-	Vir-	.	.	.	.
.	.	.	.	2e	.	.	.
=290	=290	=290	=290	=290	=290	=290	=290
[0F	-cob.	2.c	-go	2f	-cob.	0r	.
.	.	.	.	2c	.	.	.
.	.	4B-	.	.	.	.	.
.	.	4A	.	2r	.	.	.
.	.	4G	.	.	.	.	.
.	.	[2F	.	[2c	Vir-	.	.
=291	=291	=291	=291	=291	=291	=291	=291
0F_	.	2F]	.	4c]	.	0r	.
.	.	.	.	4B-	.	.	.
.	.	2.f	pe-	4A	.	.	.
.	.	.	.	4G	.	.	.
.	.	.	.	2F	-go	.	.
.	.	4e	.	.	.	.	.
.	.	2d	.	[2f	pe-	.	.
=292	=292	=292	=292	=292	=292	=292	=292
0F]	.	2c	.	4f]	.	0r	.
.	.	.	.	4e	.	.	.
.	.	1B-	.	2d	.	.	.
.	.	.	.	1c	-pe-	.	.
.	.	2A	-pe-	.	.	.	.
=293	=293	=293	=293	=293	=293	=293	=293
1r	.	1B-	-rit	1.B-	-rit,-	1r	.
1BB-	Vir-	1d	sal-	.	.	1b-	Vir-
.	.	.	.	4A	.	.	.
.	.	.	.	4G	.	.	.
=294	=294	=294	=294	=294	=294	=294	=294
2.F	-go	2c	-va-	2A	.	2.cc	-go
.	.	2.f	-to-	1F	.	.	.
4G	.	.	.	.	.	4b-	.
2A	.	.	.	.	.	4a	.
.	.	4e	.	.	.	4g	.
2B-	.	[2d	.	[2f	-pe-	[2f	.
=295	=295	=295	=295	=295	=295	=295	=295
1BB-	pe-	4d]	.	4f]	.	2f]	.
.	.	4c	.	4e	.	.	.
.	.	2B-	.	2d	.	2.ff	pe-
2.F	.	2A	.	2c	.	.	.
.	.	.	.	.	.	4ee	.
.	.	[2f	.	2F	-pe-	2dd	.
4G	.	.	.	.	.	.	.
=296	=296	=296	=296	=296	=296	=296	=296
2A	-pe-	2f]	.	[0f	-rit	2cc	.
2B-	.	2d	.	.	.	2.b-	.
1F	-rit	1c	.	.	.	.	.
.	.	.	.	.	.	4a	.
.	.	.	.	.	.	4a	-pe-
.	.	.	.	.	.	4g	.
=297	=297	=297	=297	=297	=297	=297	=297
2r	.	1B-	-rem,	0f]	.	2b-	-rit
2B-	sal-	.	.	.	.	2dd	sal-
2A	-va-	1r	.	.	.	2cc	-va-
[2B-	-to-	.	.	.	.	[2dd	-to-
=298	=298	=298	=298	=298	=298	=298	=298
2B-]	.	1r	.	1r	.	2dd]	.
4A	.	.	.	.	.	4cc	.
4G	.	.	.	.	.	4b-	.
1F	-rem,	2r	.	2r	.	1a	-rem,
.	.	2d	sal-	2f	sal-	.	.
=299	=299	=299	=299	=299	=299	=299	=299
0r	.	2c	-va-	2e-i	-va-	0r	.
.	.	1d	-to-	1f	-to-	.	.
.	.	4c	.	4e-i	.	.	.
.	.	4B-	.	4d	.	.	.
=300	=300	=300	=300	=300	=300	=300	=300
2r	.	2A	.	2c	.	2r	.
2G	sal-	2G	-rem,	2B-	-rem,	2b-	sal-
2F	-va-	1r	.	1r	.	2a	-va-
[2G	-to-	.	.	.	.	[2b-	-to-
=301	=301	=301	=301	=301	=301	=301	=301
2G]	.	1r	.	1r	.	2b-]	.
4F	.	.	.	.	.	4a	.
4E-i	.	.	.	.	.	4g	.
1D	-rem,	2r	.	2r	.	1f	-rem,
.	.	2d	sal-	2f	sal-	.	.
=302	=302	=302	=302	=302	=302	=302	=302
0r	.	2c	-va-	2e-i	-va-	0r	.
.	.	1d	-to-	1f	-to-	.	.
.	.	4c	.	4e-i	.	.	.
.	.	4B-	.	4d	.	.	.
=303	=303	=303	=303	=303	=303	=303	=303
2r	.	2A	.	2c	.	2r	.
2G	sal-	2G	-rem.	2.d	.	2b-	sal-
2F	-va-	1r	.	.	.	2a	-va-
.	.	.	.	4c	.	.	.
[2G	-to-	.	.	4B-	.	[2b-	-to-
.	.	.	.	4A	.	.	.
=304	=304	=304	=304	=304	=304	=304	=304
4G]	.	0g	Te	0G	.	4b-]	.
4F	.	.	.	.	.	4a	.
4E-i	.	.	.	.	.	4g	.
4D	.	.	.	.	.	4f	.
1E-i	.	.	.	.	.	1g	.
=305	=305	=305	=305	=305	=305	=305	=305
0D	-rem.	0a	.	0d	-rem.	1.f	-rem.
.	.	.	.	.	.	2g	.
=306	=306	=306	=306	=306	=306	=306	=306
0r	.	1f	lau-	1r	.	2a	.
.	.	.	.	.	.	2b-	.
.	.	1e	.	1A	Te	1cc	Te
=307	=307	=307	=307	=307	=307	=307	=307
0G	Te	0d	-da-	2B-	lau-	1dd	.
.	.	.	.	2G	.	.	.
.	.	.	.	1g	-da-	1b-	lau-
=308	=308	=308	=308	=308	=308	=308	=308
0A	.	0c	-mus,	2f	.	1cc	-da-
.	.	.	.	2e	.	.	.
.	.	.	.	2f	.	[1a	.
.	.	.	.	[2e	.	.	.
=309	=309	=309	=309	=309	=309	=309	=309
1F	lau-	1d	de-	4e]	.	2a]	.
.	.	.	.	4d	.	.	.
.	.	.	.	1d	.	2f	.
1E	.	1e	.	.	.	1g	.
.	.	.	.	2c#i	.	.	.
=310	=310	=310	=310	=310	=310	=310	=310
0D	-da-	1f	-us	1d	-mus,	1a	-mus,
.	.	1d	.	1F	te	1r	.
=311	=311	=311	=311	=311	=311	=311	=311
0C	-mus,	0e	nos-	1.G	lau-	0cc	Te
.	.	.	.	2A	.	.	.
=312	=312	=312	=312	=312	=312	=312	=312
1r	.	0d	-ter,-	1.B-	-da-	0dd	.
[1G	de-	.	.	.	.	.	.
.	.	.	.	2c	.	.	.
=313	=313	=313	=313	=313	=313	=313	=313
1G]	.	0r	.	2d	.	1b-	lau-
.	.	.	.	2e	.	.	.
1F	-us	.	.	1f	.	1a	.
=314	=314	=314	=314	=314	=314	=314	=314
2.E-i	nos-	0c	-te	1g	-mus,	0g	-da-
4D	.	.	.	.	.	.	.
1E-i	.	.	.	1G	de-	.	.
=315	=315	=315	=315	=315	=315	=315	=315
1D	-ter,-	0d	.	2A	.	1f	-mus,
.	.	.	.	1B-	.	.	.
[1G	-de-	.	.	.	.	[1b-	de-
.	.	.	.	2c	.	.	.
=316	=316	=316	=316	=316	=316	=316	=316
1G]	.	1B-	lau-	2d	.	2b-]	.
.	.	.	.	2e	.	2g	.
1F	-us	1A	.	2.f	-us	2.a	-us
.	.	.	.	4e	.	4b-	.
=317	=317	=317	=317	=317	=317	=317	=317
2.E-i	nos-	0G	-da-	2c	.	2cc	nos-
.	.	.	.	1d	nos-	1b-	.
4D	.	.	.	.	.	.	.
1E-i	.	.	.	.	.	.	.
.	.	.	.	2c	.	4a	.
.	.	.	.	.	.	4g	.
=318	=318	=318	=318	=318	=318	=318	=318
0D	-ter,-	0F	-mus,	2.d	.	1b-	.
.	.	.	.	4e	.	.	.
.	.	.	.	1f	.	1a	-ter,-
=319	=319	=319	=319	=319	=319	=319	=319
1r	.	2.G	de-	2.B-	-ter,-	1.b-	-de-
.	.	4A	.	4c	.	.	.
[1G	-de-	2.B-	.	1d	.	.	.
.	.	.	.	.	.	4a	.
.	.	4c	.	.	.	4g	.
=320	=320	=320	=320	=320	=320	=320	=320
1G]	.	2d	-us	2r	.	1b-	-us
.	.	2B-	.	2G	-de-	.	.
1F	-us	2d	nos-	2.A	-us	[1a	nos-
.	.	[2c	.	.	.	.	.
.	.	.	.	4B-	.	.	.
=321	=321	=321	=321	=321	=321	=321	=321
2.E-i	nos-	2c]	.	2c	.	2a]	.
.	.	2B-	.	1d	nos-	2g	.
4D	.	.	.	.	.	.	.
1E-i	.	2.G	.	.	.	[1g	.
.	.	.	.	2c	.	.	.
.	.	4A	.	.	.	.	.
=322	=322	=322	=322	=322	=322	=322	=322
0D	.	2B-	.	[0dl	-ter.-	2g]	.
.	.	2c	.	.	.	4f#i	.
.	.	.	.	.	.	4e	.
.	.	1A	.	.	.	1f#i	.
=323	=323	=323	=323	=323	=323	=323	=323
0Gl	-ter.-	0Gl	-ter.-	0d]	.	0gl	-ter.-
!!LO:LB:i:g=z
=324||	=324||	=324||	=324||	=324||	=324||	=324||	=324||
*>E	*>E	*>E	*>E	*>E	*>E	*>E	*>E
*clefF4	*	*clefGv2	*	*clefGv2	*	*clefG2	*
*k[b-]	*	*k[b-]	*	*k[b-]	*	*k[b-]	*
*M2/1	*	*M2/1	*	*M2/1	*	*M2/1	*
*met(C|)	*	*met(C|)	*	*met(C|)	*	*met(C|)	*
!!!OMD: Quinta pars: Ecce Maria
!!section: Quita pars: Ecce Maria
0r	.	0r	.	0g	-Ec-	0r	.
=325	=325	=325	=325	=325	=325	=325	=325
0r	.	0r	.	1f	-ce	0r	.
.	.	.	.	1f	Ma-	.	.
=326	=326	=326	=326	=326	=326	=326	=326
0r	.	0r	.	1g	.	[0dd	-Ec-
.	.	.	.	[1g	-ri-	.	.
=327	=327	=327	=327	=327	=327	=327	=327
0r	.	0r	.	2g]	.	0dd_	.
.	.	.	.	4f	.	.	.
.	.	.	.	4e	.	.	.
.	.	.	.	1f	.	.	.
=328	=328	=328	=328	=328	=328	=328	=328
0r	.	0r	.	2.g	.	0dd]	.
.	.	.	.	4f	.	.	.
.	.	.	.	2d	.	.	.
.	.	.	.	[2f	.	.	.
=329	=329	=329	=329	=329	=329	=329	=329
0r	.	0r	.	2f]	.	1cc	-ce
.	.	.	.	4e	.	.	.
.	.	.	.	4d	.	.	.
.	.	.	.	2e	.	1cc	Ma-
.	.	.	.	[2f	.	.	.
=330	=330	=330	=330	=330	=330	=330	=330
0r	.	0r	.	2f]	.	1dd	.
.	.	.	.	2g	.	.	.
.	.	.	.	2f	.	[1dd	-ri-
.	.	.	.	[2g	.	.	.
=331	=331	=331	=331	=331	=331	=331	=331
0r	.	0r	.	4g]	.	2dd]	.
.	.	.	.	4f	.	.	.
.	.	.	.	4e-i	.	4cc	.
.	.	.	.	4d	.	4b-	.
.	.	.	.	1e-i	.	1cc	.
=332	=332	=332	=332	=332	=332	=332	=332
0r	.	[0d	-Ec-	2.d	-a,	2.dd	-ia.-
.	.	.	.	4e	.	4cc	.
.	.	.	.	2f	.	2a	.
.	.	.	.	[2B-	Ma-	[2b-	-a,
=333	=333	=333	=333	=333	=333	=333	=333
0r	.	0d]	.	4B-]	.	2b-]	.
.	.	.	.	4c	.	.	.
.	.	.	.	2d	.	2a	.
.	.	.	.	2G	-ri-	2b-	ri-
.	.	.	.	[2F	.	[2a	.
=334	=334	=334	=334	=334	=334	=334	=334
0r	.	1c	-ce	2F]	.	2a]	.
.	.	.	.	2G	.	4g	.
.	.	.	.	.	.	4f	.
.	.	1c	Ma-	1A	.	1e	.
=335	=335	=335	=335	=335	=335	=335	=335
0G	-Ec-	1d	.	0B-	-a	0d	-a
.	.	[1d	-ri-	.	.	.	.
=336	=336	=336	=336	=336	=336	=336	=336
1F	-ce	2d]	.	0A	.	0r	.
.	.	4c	.	.	.	.	.
.	.	4B-	.	.	.	.	.
1F	Ma-	2.c	.	.	.	.	.
.	.	4d	.	.	.	.	.
=337	=337	=337	=337	=337	=337	=337	=337
1G	.	2e-i	.	0r	.	0r	.
.	.	2.d	.	.	.	.	.
[1G	-ri-	.	.	.	.	.	.
.	.	4c	.	.	.	.	.
.	.	4B-	.	.	.	.	.
.	.	4A	.	.	.	.	.
=338	=338	=338	=338	=338	=338	=338	=338
2G]	.	2B-	.	0r	.	0r	.
4F#i	.	2c	.	.	.	.	.
4E	.	.	.	.	.	.	.
1F#i	.	1A	.	.	.	.	.
=339	=339	=339	=339	=339	=339	=339	=339
0G	-a	0G	-a	2r	.	1r	.
.	.	.	.	2.d	ge-	.	.
.	.	.	.	.	.	1b-	ge-
.	.	.	.	4c	.	.	.
.	.	.	.	4d	.	.	.
.	.	.	.	4e	.	.	.
=340	=340	=340	=340	=340	=340	=340	=340
0r	.	0r	.	2f	.	2a	-nu-
.	.	.	.	1g	.	2g	-it
.	.	.	.	.	.	1a	no-
.	.	.	.	2f#i	-nu-	.	.
=341	=341	=341	=341	=341	=341	=341	=341
0r	.	0r	.	2g	-it	2g	-bis
.	.	.	.	2d	no-	2b-	sal-
.	.	.	.	1f	-bis	2a	-va-
.	.	.	.	.	.	[2cc	-to-
=342	=342	=342	=342	=342	=342	=342	=342
0r	.	0r	.	2e-i	sal-	2cc]	.
.	.	.	.	2d	.	4b-	.
.	.	.	.	.	.	4a	.
.	.	.	.	1e-i	-va-	1g	.
=343	=343	=343	=343	=343	=343	=343	=343
0r	.	1r	.	2.d	-to-	0f	-rem,
.	.	.	.	4c	.	.	.
.	.	1B-	ge-	4d	.	.	.
.	.	.	.	4e-i	.	.	.
.	.	.	.	[2f	.	.	.
=344	=344	=344	=344	=344	=344	=344	=344
0r	.	2A	-nu-	2f]	.	0r	.
.	.	2G	-it	4e-i	.	.	.
.	.	.	.	4d	.	.	.
.	.	1A	no-	1c	-rem,	.	.
=345	=345	=345	=345	=345	=345	=345	=345
1r	.	2G	-bis	4B-	sal-	0r	.
.	.	.	.	4c	.	.	.
.	.	2B-	sal-	4d	.	.	.
.	.	.	.	4e-i	.	.	.
1F	ge-	2A	-va-	2.f	-va-	.	.
.	.	[2c	-to-	.	.	.	.
.	.	.	.	4e-i	.	.	.
=346	=346	=346	=346	=346	=346	=346	=346
2E-i	-nu-	2c]	.	2c	-to-	0r	.
2D	-it	4B-	.	1d	.	.	.
.	.	4A	.	.	.	.	.
1E-i	no-	1G	.	.	.	.	.
.	.	.	.	2c	.	.	.
=347	=347	=347	=347	=347	=347	=347	=347
2D	.	1F	-rem,	2d	.	0r	.
2.F	.	.	.	2c	.	.	.
.	.	1r	.	2d	.	.	.
4E-i	.	.	.	.	.	.	.
4D	.	.	.	[2f	.	.	.
4C	.	.	.	.	.	.	.
=348	=348	=348	=348	=348	=348	=348	=348
2BB-	.	1F	quem	2f]	.	1r	.
2D	.	.	.	4e-i	.	.	.
.	.	.	.	4d	.	.	.
1C	-bis	1G	Io-	1e-i	.	1cc	quem
=349	=349	=349	=349	=349	=349	=349	=349
1BB-	sal-	1B-	-an-	1d	-rem,	2dd	Io-
.	.	.	.	.	.	1ff	-an-
1D	-va-	1A	-nes,	1F	quem	.	.
.	.	.	.	.	.	4ee-i	.
.	.	.	.	.	.	4dd	.
=350	=350	=350	=350	=350	=350	=350	=350
1C	-to-	2r	.	1G	Io-	1ee-i	-nes
.	.	2c	quem	.	.	.	.
1BB-	-rem,	1d	Io-	[1B-	-an-	[1dd	vi-
=351	=351	=351	=351	=351	=351	=351	=351
1r	.	1.f	-an-	2B-]	.	2dd]	.
.	.	.	.	4A	.	4cc	.
.	.	.	.	4G	.	4b-	.
1F	quem	.	.	1A	.	2cc	.
.	.	4e-i	.	.	.	2dd	.
.	.	4d	.	.	.	.	.
=352	=352	=352	=352	=352	=352	=352	=352
2G	Io-	2e-i	.	1G	-nes	2b-	.
1B-	-an-	2d	-nes	.	.	1dd	.
.	.	[1f	vi-	1d	vi-	.	.
4A	.	.	.	.	.	4cc	.
4G	.	.	.	.	.	4b-	.
=353	=353	=353	=353	=353	=353	=353	=353
2A	.	2f]	.	2c	.	2cc	.
2B-	.	4e-i	.	1B-	.	2dd	.
.	.	4d	.	.	.	.	.
2G	-nes	2e-i	.	.	.	2b-	.
[2B-	vi-	2d	.	4A	.	[2dd	.
.	.	.	.	4G	.	.	.
=354	=354	=354	=354	=354	=354	=354	=354
4B-]	.	1f	.	1d	-dens	4dd]	.
4A	.	.	.	.	.	4cc	.
2F	.	.	.	.	.	2a	.
1G	.	2e-i	.	1r	.	1b-	.
.	.	[2d	.	.	.	.	.
=355	=355	=355	=355	=355	=355	=355	=355
0D	-dens	2d]	.	1.f	ex-	1a	-dens
.	.	4c	.	.	.	.	.
.	.	4B-	.	.	.	.	.
.	.	1A	-dens	.	.	1f	ex-
.	.	.	.	4e	.	.	.
.	.	.	.	4d	.	.	.
=356	=356	=356	=356	=356	=356	=356	=356
0r	.	0r	.	2e	.	1g	-cla-
.	.	.	.	2.g	-cla-	.	.
.	.	.	.	.	.	1b-	.
.	.	.	.	4f	.	.	.
.	.	.	.	[2d	.	.	.
=357	=357	=357	=357	=357	=357	=357	=357
0r	.	0r	.	4d]	.	2.a	-ma-
.	.	.	.	4e	.	.	.
.	.	.	.	2.f	-ma-	.	.
.	.	.	.	.	.	4g	.
.	.	.	.	.	.	2a	-vit
.	.	.	.	4e	.	.	.
.	.	.	.	4d	.	[2b-	di-
.	.	.	.	4c	.	.	.
=358	=358	=358	=358	=358	=358	=358	=358
1r	.	0r	.	2B-	.	4b-]	.
.	.	.	.	.	.	4a	.
.	.	.	.	2c	-vit	1g	.
1D	ex-	.	.	1A	di-	.	.
.	.	.	.	.	.	2f#i	.
=359	=359	=359	=359	=359	=359	=359	=359
1E	-cla-	0r	.	1G	-cens,	0g	-cens:
1G	.	.	.	1B-	ex-	.	.
=360	=360	=360	=360	=360	=360	=360	=360
2.F	-ma-	1r	.	2.A	-cla-	0r	.
4D	.	.	.	4F	.	.	.
2E	.	1c	ex-	2G	.	.	.
2F	.	.	.	2A	.	.	.
=361	=361	=361	=361	=361	=361	=361	=361
2BB-	.	1d	-cla-	2B-	.	0r	.
2.B-	.	.	.	2.d	-ma-	.	.
.	.	1f	.	.	.	.	.
4A	.	.	.	4c	.	.	.
2F	.	.	.	2A	.	.	.
=362	=362	=362	=362	=362	=362	=362	=362
2G	-vit	2.e	-ma-	2B-	-vit	0r	.
2.A	di-	.	.	2.c	di-	.	.
.	.	4d	.	.	.	.	.
.	.	2e	-vit	.	.	.	.
4G	.	.	.	4B-	.	.	.
4F	.	[2f	di-	4A	.	.	.
4E	.	.	.	4G	.	.	.
=363	=363	=363	=363	=363	=363	=363	=363
2F	.	4f]	.	2A	.	0r	.
.	.	4e	.	.	.	.	.
2G	.	2.d	.	2B-	.	.	.
1E	.	.	.	1G	.	.	.
.	.	4c#i	.	.	.	.	.
.	.	4c#i	.	.	.	.	.
.	.	4Bni	.	.	.	.	.
=364	=364	=364	=364	=364	=364	=364	=364
*M3/1	*	*M3/1	*	*M3/1	*	*M3/1	*
*met(3)	*	*met(3)	*	*met(3)	*	*met(3)	*
0D	-cens:	0d	-cens:	1A	-cens:	1.a	Ec-
.	.	.	.	1f	Ec-	.	.
.	.	.	.	.	.	2b-	.
1r	.	1r	.	1e	-ce	1cc	-ce
=365	=365	=365	=365	=365	=365	=365	=365
0.r	.	0.r	.	0f	a-	1dd	a-
.	.	.	.	.	.	1.ff	-gnus
.	.	.	.	1d	-gnus	.	.
.	.	.	.	.	.	2ee	.
=366	=366	=366	=366	=366	=366	=366	=366
0.r	.	0.r	.	1f	de-	0dd	de-
.	.	.	.	0e	.	.	.
.	.	.	.	.	.	1cc#i	.
=367	=367	=367	=367	=367	=367	=367	=367
0G	Ec-	0B-	Ec-	0.d	-i,	0.dd	-i,
1F	-ce	1A	-ce	.	.	.	.
=368	=368	=368	=368	=368	=368	=368	=368
1G	a-	0B-	a-	0.r	.	0.r	.
1D	.	.	.	.	.	.	.
1E	-gnus	1G	-gnus	.	.	.	.
=369	=369	=369	=369	=369	=369	=369	=369
1.G	de-	1B-	de-	0.r	.	0.r	.
.	.	0A	.	.	.	.	.
2F#i	.	.	.	.	.	.	.
2F#i	.	.	.	.	.	.	.
2E	.	.	.	.	.	.	.
=370	=370	=370	=370	=370	=370	=370	=370
*M2/1	*	*M2/1	*	*M2/1	*	*M2/1	*
*met(C|)	*	*met(C|)	*	*met()	*	*met(C|)	*
0G	-i,	0G	-i,	0r	.	1r	.
.	.	.	.	.	.	1b-	ec-
=371	=371	=371	=371	=371	=371	=371	=371
*	*	*	*	*M2/1	*	*	*
*	*	*	*	*met(C|)	*	*	*
0r	.	0r	.	1r	.	2a	-ce
.	.	.	.	.	.	2g	qui
.	.	.	.	1f	ec-	1a	tol-
=372	=372	=372	=372	=372	=372	=372	=372
0r	.	0r	.	2e	-ce	2g	-lit
.	.	.	.	2d	qui	2f	pec-
.	.	.	.	1e	tol-	2.g	-ca-
.	.	.	.	.	.	4a	.
=373	=373	=373	=373	=373	=373	=373	=373
0r	.	0r	.	2d	-lit	1b-	.
.	.	.	.	4B-	pec-	.	.
.	.	.	.	4c	.	.	.
.	.	.	.	4d	-ca-	1a	-ta
.	.	.	.	4e	.	.	.
.	.	.	.	2f	-ta	.	.
=374	=374	=374	=374	=374	=374	=374	=374
0r	.	0r	.	2e	mun-	2g	mun-
.	.	.	.	2.d	.	2f	.
.	.	.	.	.	.	1e	.
.	.	.	.	4c#i	.	.	.
.	.	.	.	4c#i	.	.	.
.	.	.	.	4Bni	.	.	.
=375	=375	=375	=375	=375	=375	=375	=375
0r	.	1r	.	1d	-di,	0d	-di,
.	.	1B-	ec-	2r	.	.	.
.	.	.	.	2G	pec-	.	.
=376	=376	=376	=376	=376	=376	=376	=376
1r	.	2A	-ce	2A	-ca-	0r	.
.	.	2G	qui	2B-	-ta	.	.
1F	ec-	1A	tol-	2.c	mun-	.	.
.	.	.	.	4A	.	.	.
=377	=377	=377	=377	=377	=377	=377	=377
2E-i	-ce	2G	-lit	4B-	.	0r	.
.	.	.	.	4c	.	.	.
2D	qui	2F	pec-	1d	.	.	.
1E-i	tol-	2.G	-ca-	.	.	.	.
.	.	.	.	2c	.	.	.
.	.	4A	.	.	.	.	.
=378	=378	=378	=378	=378	=378	=378	=378
2D	-lit	4B-	.	1d	-di,	0r	.
.	.	4c	.	.	.	.	.
1B-	pec-	2.d	.	.	.	.	.
.	.	.	.	1r	.	.	.
.	.	4e	.	.	.	.	.
2A	.	2f	.	.	.	.	.
=379	=379	=379	=379	=379	=379	=379	=379
2G	-ca-	2e	-ta	0r	.	0r	.
2F	-ta	2.d	mun-	.	.	.	.
1E	mun-	.	.	.	.	.	.
.	.	4c#i	.	.	.	.	.
.	.	4c#i	.	.	.	.	.
.	.	4Bni	.	.	.	.	.
=380	=380	=380	=380	=380	=380	=380	=380
1D	-di,	0d	-di,	1f	al-	1r	.
2r	.	.	.	2d	.	1f	al-
2D	al-	.	.	2f	-le-	.	.
=381	=381	=381	=381	=381	=381	=381	=381
2.E	-le-	2r	.	1e	-lu-	1.g	-le-
.	.	2G	al-	.	.	.	.
4F	.	.	.	.	.	.	.
2G	.	2B-	-le-	2d	-ia,	.	.
2C	.	2c	.	2g	al-	4f	.
.	.	.	.	.	.	4e	.
=382	=382	=382	=382	=382	=382	=382	=382
2D	-lu-	1A	-lu-	2f	-le-	1f	-lu-
2F	.	.	.	2.d	-lu-	.	.
1E	.	1G	-ia,	.	.	1g	.
.	.	.	.	4c	.	.	.
.	.	.	.	2g	.	.	.
=383	=383	=383	=383	=383	=383	=383	=383
0D	-ia,	1r	.	2f	-ia,	1a	-ia,
.	.	.	.	2d	al-	.	.
*	*	*	*	*M2/1	*	*	*
*	*	*	*	*met(3)	*	*	*
.	.	1F	al-	3.f	-le-	2r	.
.	.	.	.	6e	.	2a	al-
.	.	.	.	6d	.	.	.
.	.	.	.	6cZ	.	.	.
=384	=384	=384	=384	=384	=384	=384	=384
0r	.	1.G	-le-	3.B-	-lu-	2.b-	-le-
.	.	.	.	6c	.	.	.
.	.	.	.	3d	.	.	.
*	*	*	*	*M2/1	*	*	*
*	*	*	*	*met(C|)	*	*	*
.	.	.	.	.	.	4cc	.
.	.	.	.	2G	-ia,	4dd	.
.	.	.	.	.	.	4ee-i	.
.	.	4F	.	2g	al-	[2dd	.
.	.	4E	.	.	.	.	.
=385	=385	=385	=385	=385	=385	=385	=385
0r	.	1F	.	2.f	-le-	4dd]	.
.	.	.	.	.	.	4cc	.
.	.	.	.	.	.	1cc	-lu-
.	.	.	.	4e	.	.	.
.	.	1G	.	1d	-lu-	.	.
.	.	.	.	.	.	2bni	.
=386	=386	=386	=386	=386	=386	=386	=386
1r	.	1A	-lu-	1c	-ia,	2cc	-ia,
.	.	.	.	.	.	1a	al-
1D	al-	1f	-al-	1F	al-	.	.
.	.	.	.	.	.	[2dd	.
=387	=387	=387	=387	=387	=387	=387	=387
2.E	-le-	1e	.	1.G	-le-	4dd]	.
.	.	.	.	.	.	4cc	.
.	.	.	.	.	.	2cc	-le-
4F	.	.	.	.	.	.	.
2G	.	2d	-le-	.	.	2b-	-lu-
2C	.	[2e	-lu-	4F	.	2cc	.
.	.	.	.	4E	.	.	.
=388	=388	=388	=388	=388	=388	=388	=388
2D	-lu-	4e]	.	1F	-lu-	1a	.
.	.	4d	.	.	.	.	.
2F	.	1d	.	.	.	.	.
1E	.	.	.	1G	.	1g	-ia,
.	.	2c#i	.	.	.	.	.
=389	=389	=389	=389	=389	=389	=389	=389
1D	-ia,	0d	-ia,	2A	-ia,	1r	.
.	.	.	.	2f	al-	.	.
2r	.	.	.	2d	.	1f	al-
2D	al-	.	.	2f	-le-	.	.
=390	=390	=390	=390	=390	=390	=390	=390
2.E	-le-	2r	.	1e	-lu-	1.g	-le-
.	.	2G	al-	.	.	.	.
4F	.	.	.	.	.	.	.
2G	.	2B-	-le-	2d	-ia,	.	.
2C	.	2c	.	2g	al-	4f	.
.	.	.	.	.	.	4e	.
=391	=391	=391	=391	=391	=391	=391	=391
2D	-lu-	1A	-lu-	2f	-le-	1f	.
2F	.	.	.	2.d	-lu-	.	.
1E	.	1G	-ia,	.	.	1g	-lu-
.	.	.	.	4c	.	.	.
.	.	.	.	2g	.	.	.
=392	=392	=392	=392	=392	=392	=392	=392
[0D	.	2r	.	1f	-ia,	0a	-ia,
.	.	2.d	al-	.	.	.	.
.	.	.	.	2r	.	.	.
.	.	4c	.	.	.	.	.
.	.	4d	.	[2d	al-	.	.
.	.	4e	.	.	.	.	.
=393	=393	=393	=393	=393	=393	=393	=393
0D_	.	2.f	-le-	4d]	.	2r	.
.	.	.	.	4c	.	.	.
.	.	.	.	4d	.	2a	al-
.	.	4e	.	4e	.	.	.
.	.	4d	.	2.f	-le-	2a	-le-
.	.	4c	.	.	.	.	.
.	.	[2d	-lu-	.	.	[2b-	-lu-
.	.	.	.	4e	.	.	.
=394	=394	=394	=394	=394	=394	=394	=394
0D]	.	2d]	.	4d	.	2b-]	.
.	.	.	.	4c	.	.	.
.	.	4c	.	2.d	-lu-	4a	.
.	.	4B-	.	.	.	4g	.
.	.	1A	.	.	.	4f#i	.
.	.	.	.	4c	.	4g	.
.	.	.	.	2A	.	4a	.
.	.	.	.	.	.	4f#i	.
=395	=395	=395	=395	=395	=395	=395	=395
[0GGl	-ia.-	[0Gl	-ia.-	1.B-	.	[0gl	-ia.-
.	.	.	.	4A	.	.	.
.	.	.	.	4G	.	.	.
=396	=396	=396	=396	=396	=396	=396	=396
0GG]	.	0G]	.	0dl	-ia.-	0g]	.
==	==	==	==	==	==	==	==
*-	*-	*-	*-	*-	*-	*-	*-
!!!RDF**kern: l=long note in original notation
!!!RDF**kern: i=editorial accidental
!!!RDF**kern: V = start of tuplet marker
!!!RDF**kern: Z = end of tuplet marker
!!!ENC: Jesse Rodin 8 Dec 2019
!!!END: 2019/12/08/
!!!EED: Jesse Rodin
!!!EEV: 2019/12/10/
!!attribution-level@Jos: 1 (secure, core group [checkmark])
!!!ONB: Translated from MusicXML and edited on 2019/12/10/ by Craig Sapp
!!muse2ps: C^@{COM}\n@{SCT}^i2I150v90,90,90,120c80z18l2700t130
